thor2304/Robotic_Visualizations/Robot_control/RTDE_Data/robot_data_only_desired_inputs.csv
timestamp actual_execution_time target_q_0 target_q_1 target_q_2 target_q_3 target_q_4 target_q_5 actual_q_0 actual_q_1 actual_q_2 actual_q_3 actual_q_4 actual_q_5 actual_TCP_pose_0 actual_TCP_pose_1 actual_TCP_pose_2 actual_TCP_pose_3 actual_TCP_pose_4 actual_TCP_pose_5 target_TCP_pose_0 target_TCP_pose_1 target_TCP_pose_2 target_TCP_pose_3 target_TCP_pose_4 target_TCP_pose_5 payload output_double_register_24 output_double_register_25 output_bit_register_64 runtime_state
9044.46 0.13347 0.8139121098918858 -1.7821177711439447 2.5715569713315656 -2.360235527187619 -1.570796326589793 -0.756884217108114 0.8139121098918858 -1.7821177711439447 2.5715569713315656 -2.360235527187619 -1.570796326589793 -0.756884217108114 -0.09999999999999999 -0.29999999999999977 0.19999999999999943 -8.719671245021577e-17 3.1415926535897922 1.609628687190301e-15 -0.09999999999999999 -0.29999999999999977 0.19999999999999943 -8.719671245021577e-17 3.1415926535897922 1.609628687190301e-15 1.0 0.16 0.04 False 1
9044.56 0.124837 0.8139121098918858 -1.7821177711439447 2.5715569713315656 -2.360235527187619 -1.570796326589793 -0.756884217108114 0.8139121098918858 -1.7821177711439447 2.5715569713315656 -2.360235527187619 -1.570796326589793 -0.756884217108114 -0.09999999999999999 -0.29999999999999977 0.19999999999999943 -8.719671245021577e-17 3.1415926535897922 1.609628687190301e-15 -0.09999999999999999 -0.29999999999999977 0.19999999999999943 -8.719671245021577e-17 3.1415926535897922 1.609628687190301e-15 1.0 0.16 0.04 False 1
9044.66 0.085007 0.8139121098918858 -1.7821177711439447 2.5715569713315656 -2.360235527187619 -1.570796326589793 -0.756884217108114 0.8139121098918858 -1.7821177711439447 2.5715569713315656 -2.360235527187619 -1.570796326589793 -0.756884217108114 -0.09999999999999999 -0.29999999999999977 0.19999999999999943 -8.719671245021577e-17 3.1415926535897922 1.609628687190301e-15 -0.09999999999999999 -0.29999999999999977 0.19999999999999943 -8.719671245021577e-17 3.1415926535897922 1.609628687190301e-15 1.0 0.16 0.04 False 1
9044.76 0.145286 0.8139121098918858 -1.7821177711439447 2.5715569713315656 -2.360235527187619 -1.570796326589793 -0.756884217108114 0.8139121098918858 -1.7821177711439447 2.5715569713315656 -2.360235527187619 -1.570796326589793 -0.756884217108114 -0.09999999999999999 -0.29999999999999977 0.19999999999999943 -8.719671245021577e-17 3.1415926535897922 1.609628687190301e-15 -0.09999999999999999 -0.29999999999999977 0.19999999999999943 -8.719671245021577e-17 3.1415926535897922 1.609628687190301e-15 1.0 0.16 0.04 False 1
9044.859999999999 0.066441 0.8139121098918858 -1.7821177711439447 2.5715569713315656 -2.360235527187619 -1.570796326589793 -0.756884217108114 0.8139121098918858 -1.7821177711439447 2.5715569713315656 -2.360235527187619 -1.570796326589793 -0.756884217108114 -0.09999999999999999 -0.29999999999999977 0.19999999999999943 -8.719671245021577e-17 3.1415926535897922 1.609628687190301e-15 -0.09999999999999999 -0.29999999999999977 0.19999999999999943 -8.719671245021577e-17 3.1415926535897922 1.609628687190301e-15 1.0 0.16 0.04 False 1
9044.96 0.120725 0.8139121098918858 -1.7821177711439447 2.5715569713315656 -2.360235527187619 -1.570796326589793 -0.756884217108114 0.8139121098918858 -1.7821177711439447 2.5715569713315656 -2.360235527187619 -1.570796326589793 -0.756884217108114 -0.09999999999999999 -0.29999999999999977 0.19999999999999943 -8.719671245021577e-17 3.1415926535897922 1.609628687190301e-15 -0.09999999999999999 -0.29999999999999977 0.19999999999999943 -8.719671245021577e-17 3.1415926535897922 1.609628687190301e-15 1.0 0.16 0.04 False 1
9045.06 0.156096 0.8139121098918858 -1.7821177711439447 2.5715569713315656 -2.360235527187619 -1.570796326589793 -0.756884217108114 0.8139121098918858 -1.7821177711439447 2.5715569713315656 -2.360235527187619 -1.570796326589793 -0.756884217108114 -0.09999999999999999 -0.29999999999999977 0.19999999999999943 -8.719671245021577e-17 3.1415926535897922 1.609628687190301e-15 -0.09999999999999999 -0.29999999999999977 0.19999999999999943 -8.719671245021577e-17 3.1415926535897922 1.609628687190301e-15 1.0 0.16 0.04 False 1
9045.16 0.09686 0.8139121098918858 -1.7821177711439447 2.5715569713315656 -2.360235527187619 -1.570796326589793 -0.756884217108114 0.8139121098918858 -1.7821177711439447 2.5715569713315656 -2.360235527187619 -1.570796326589793 -0.756884217108114 -0.09999999999999999 -0.29999999999999977 0.19999999999999943 -8.719671245021577e-17 3.1415926535897922 1.609628687190301e-15 -0.09999999999999999 -0.29999999999999977 0.19999999999999943 -8.719671245021577e-17 3.1415926535897922 1.609628687190301e-15 1.0 0.16 0.04 False 1
9045.26 0.179887 0.8139121098918858 -1.7821177711439447 2.5715569713315656 -2.360235527187619 -1.570796326589793 -0.756884217108114 0.8139121098918858 -1.7821177711439447 2.5715569713315656 -2.360235527187619 -1.570796326589793 -0.756884217108114 -0.09999999999999999 -0.29999999999999977 0.19999999999999943 -8.719671245021577e-17 3.1415926535897922 1.609628687190301e-15 -0.09999999999999999 -0.29999999999999977 0.19999999999999943 -8.719671245021577e-17 3.1415926535897922 1.609628687190301e-15 1.0 0.16 0.04 False 1
9045.359999999999 0.159637 0.8139121098918858 -1.7821177711439447 2.5715569713315656 -2.360235527187619 -1.570796326589793 -0.756884217108114 0.8139121098918858 -1.7821177711439447 2.5715569713315656 -2.360235527187619 -1.570796326589793 -0.756884217108114 -0.09999999999999999 -0.29999999999999977 0.19999999999999943 -8.719671245021577e-17 3.1415926535897922 1.609628687190301e-15 -0.09999999999999999 -0.29999999999999977 0.19999999999999943 -8.719671245021577e-17 3.1415926535897922 1.609628687190301e-15 1.0 0.16 0.04 False 1
9045.46 0.08975799999999999 0.8139121098918858 -1.7821177711439447 2.5715569713315656 -2.360235527187619 -1.570796326589793 -0.756884217108114 0.8139121098918858 -1.7821177711439447 2.5715569713315656 -2.360235527187619 -1.570796326589793 -0.756884217108114 -0.09999999999999999 -0.29999999999999977 0.19999999999999943 -8.719671245021577e-17 3.1415926535897922 1.609628687190301e-15 -0.09999999999999999 -0.29999999999999977 0.19999999999999943 -8.719671245021577e-17 3.1415926535897922 1.609628687190301e-15 1.0 0.16 0.04 False 1
9045.56 0.076652 0.8139121098918858 -1.7821177711439447 2.5715569713315656 -2.360235527187619 -1.570796326589793 -0.756884217108114 0.8139121098918858 -1.7821177711439447 2.5715569713315656 -2.360235527187619 -1.570796326589793 -0.756884217108114 -0.09999999999999999 -0.29999999999999977 0.19999999999999943 -8.719671245021577e-17 3.1415926535897922 1.609628687190301e-15 -0.09999999999999999 -0.29999999999999977 0.19999999999999943 -8.719671245021577e-17 3.1415926535897922 1.609628687190301e-15 1.0 0.16 0.04 False 1
9045.66 0.226532 0.8139121098918858 -1.7821177711439447 2.5715569713315656 -2.360235527187619 -1.570796326589793 -0.756884217108114 0.8139121098918858 -1.7821177711439447 2.5715569713315656 -2.360235527187619 -1.570796326589793 -0.756884217108114 -0.09999999999999999 -0.29999999999999977 0.19999999999999943 -8.719671245021577e-17 3.1415926535897922 1.609628687190301e-15 -0.09999999999999999 -0.29999999999999977 0.19999999999999943 -8.719671245021577e-17 3.1415926535897922 1.609628687190301e-15 1.0 0.16 0.04 False 1
9045.76 0.12047 0.8139121098918858 -1.7821177711439447 2.5715569713315656 -2.360235527187619 -1.570796326589793 -0.756884217108114 0.8139121098918858 -1.7821177711439447 2.5715569713315656 -2.360235527187619 -1.570796326589793 -0.756884217108114 -0.09999999999999999 -0.29999999999999977 0.19999999999999943 -8.719671245021577e-17 3.1415926535897922 1.609628687190301e-15 -0.09999999999999999 -0.29999999999999977 0.19999999999999943 -8.719671245021577e-17 3.1415926535897922 1.609628687190301e-15 1.0 0.16 0.04 False 1
9045.859999999999 0.101554 0.8139121098918858 -1.7821177711439447 2.5715569713315656 -2.360235527187619 -1.570796326589793 -0.756884217108114 0.8139121098918858 -1.7821177711439447 2.5715569713315656 -2.360235527187619 -1.570796326589793 -0.756884217108114 -0.09999999999999999 -0.29999999999999977 0.19999999999999943 -8.719671245021577e-17 3.1415926535897922 1.609628687190301e-15 -0.09999999999999999 -0.29999999999999977 0.19999999999999943 -8.719671245021577e-17 3.1415926535897922 1.609628687190301e-15 1.0 0.16 0.04 False 1
9045.96 0.14987299999999998 0.8139121098918858 -1.7821177711439447 2.5715569713315656 -2.360235527187619 -1.570796326589793 -0.756884217108114 0.8139121098918858 -1.7821177711439447 2.5715569713315656 -2.360235527187619 -1.570796326589793 -0.756884217108114 -0.09999999999999999 -0.29999999999999977 0.19999999999999943 -8.719671245021577e-17 3.1415926535897922 1.609628687190301e-15 -0.09999999999999999 -0.29999999999999977 0.19999999999999943 -8.719671245021577e-17 3.1415926535897922 1.609628687190301e-15 1.0 0.16 0.04 False 1
9046.06 0.07181399999999999 0.8139121098918858 -1.7821177711439447 2.5715569713315656 -2.360235527187619 -1.570796326589793 -0.756884217108114 0.8139121098918858 -1.7821177711439447 2.5715569713315656 -2.360235527187619 -1.570796326589793 -0.756884217108114 -0.09999999999999999 -0.29999999999999977 0.19999999999999943 -8.719671245021577e-17 3.1415926535897922 1.609628687190301e-15 -0.09999999999999999 -0.29999999999999977 0.19999999999999943 -8.719671245021577e-17 3.1415926535897922 1.609628687190301e-15 1.0 0.16 0.04 False 1
9046.16 0.07992 0.8139121098918858 -1.7821177711439447 2.5715569713315656 -2.360235527187619 -1.570796326589793 -0.756884217108114 0.8139121098918858 -1.7821177711439447 2.5715569713315656 -2.360235527187619 -1.570796326589793 -0.756884217108114 -0.09999999999999999 -0.29999999999999977 0.19999999999999943 -8.719671245021577e-17 3.1415926535897922 1.609628687190301e-15 -0.09999999999999999 -0.29999999999999977 0.19999999999999943 -8.719671245021577e-17 3.1415926535897922 1.609628687190301e-15 1.0 0.16 0.04 False 1
9046.26 0.06142 0.8139121098918858 -1.7821177711439447 2.5715569713315656 -2.360235527187619 -1.570796326589793 -0.756884217108114 0.8139121098918858 -1.7821177711439447 2.5715569713315656 -2.360235527187619 -1.570796326589793 -0.756884217108114 -0.09999999999999999 -0.29999999999999977 0.19999999999999943 -8.719671245021577e-17 3.1415926535897922 1.609628687190301e-15 -0.09999999999999999 -0.29999999999999977 0.19999999999999943 -8.719671245021577e-17 3.1415926535897922 1.609628687190301e-15 1.0 0.16 0.04 False 1
9046.359999999999 0.070597 0.8139121098918858 -1.7821177711439447 2.5715569713315656 -2.360235527187619 -1.570796326589793 -0.756884217108114 0.8139121098918858 -1.7821177711439447 2.5715569713315656 -2.360235527187619 -1.570796326589793 -0.756884217108114 -0.09999999999999999 -0.29999999999999977 0.19999999999999943 -8.719671245021577e-17 3.1415926535897922 1.609628687190301e-15 -0.09999999999999999 -0.29999999999999977 0.19999999999999943 -8.719671245021577e-17 3.1415926535897922 1.609628687190301e-15 1.0 0.16 0.04 False 1
9046.46 0.084414 0.8139121098918858 -1.7821177711439447 2.5715569713315656 -2.360235527187619 -1.570796326589793 -0.756884217108114 0.8139121098918858 -1.7821177711439447 2.5715569713315656 -2.360235527187619 -1.570796326589793 -0.756884217108114 -0.09999999999999999 -0.29999999999999977 0.19999999999999943 -8.719671245021577e-17 3.1415926535897922 1.609628687190301e-15 -0.09999999999999999 -0.29999999999999977 0.19999999999999943 -8.719671245021577e-17 3.1415926535897922 1.609628687190301e-15 1.0 0.16 0.04 False 1
9046.56 0.16442500000000002 0.8139121098918858 -1.7821177711439447 2.5715569713315656 -2.360235527187619 -1.570796326589793 -0.756884217108114 0.8139121098918858 -1.7821177711439447 2.5715569713315656 -2.360235527187619 -1.570796326589793 -0.756884217108114 -0.09999999999999999 -0.29999999999999977 0.19999999999999943 -8.719671245021577e-17 3.1415926535897922 1.609628687190301e-15 -0.09999999999999999 -0.29999999999999977 0.19999999999999943 -8.719671245021577e-17 3.1415926535897922 1.609628687190301e-15 1.0 0.16 0.04 False 1
9046.66 0.103348 0.8139121098918858 -1.7821177711439447 2.5715569713315656 -2.360235527187619 -1.570796326589793 -0.756884217108114 0.8139121098918858 -1.7821177711439447 2.5715569713315656 -2.360235527187619 -1.570796326589793 -0.756884217108114 -0.09999999999999999 -0.29999999999999977 0.19999999999999943 -8.719671245021577e-17 3.1415926535897922 1.609628687190301e-15 -0.09999999999999999 -0.29999999999999977 0.19999999999999943 -8.719671245021577e-17 3.1415926535897922 1.609628687190301e-15 1.0 0.16 0.04 False 1
9046.76 0.08568300000000001 0.8139121098918858 -1.7821177711439447 2.5715569713315656 -2.360235527187619 -1.570796326589793 -0.756884217108114 0.8139121098918858 -1.7821177711439447 2.5715569713315656 -2.360235527187619 -1.570796326589793 -0.756884217108114 -0.09999999999999999 -0.29999999999999977 0.19999999999999943 -8.719671245021577e-17 3.1415926535897922 1.609628687190301e-15 -0.09999999999999999 -0.29999999999999977 0.19999999999999943 -8.719671245021577e-17 3.1415926535897922 1.609628687190301e-15 1.0 0.16 0.04 False 1
9046.859999999999 0.13712799999999997 0.8139121098918858 -1.7821177711439447 2.5715569713315656 -2.360235527187619 -1.570796326589793 -0.756884217108114 0.8139121098918858 -1.7821177711439447 2.5715569713315656 -2.360235527187619 -1.570796326589793 -0.756884217108114 -0.09999999999999999 -0.29999999999999977 0.19999999999999943 -8.719671245021577e-17 3.1415926535897922 1.609628687190301e-15 -0.09999999999999999 -0.29999999999999977 0.19999999999999943 -8.719671245021577e-17 3.1415926535897922 1.609628687190301e-15 1.0 0.16 0.04 False 1
9046.96 0.13450800000000002 0.8139121098918858 -1.7821177711439447 2.5715569713315656 -2.360235527187619 -1.570796326589793 -0.756884217108114 0.8139121098918858 -1.7821177711439447 2.5715569713315656 -2.360235527187619 -1.570796326589793 -0.756884217108114 -0.09999999999999999 -0.29999999999999977 0.19999999999999943 -8.719671245021577e-17 3.1415926535897922 1.609628687190301e-15 -0.09999999999999999 -0.29999999999999977 0.19999999999999943 -8.719671245021577e-17 3.1415926535897922 1.609628687190301e-15 1.0 0.16 0.04 False 1
9047.06 0.10023399999999999 0.8139121098918858 -1.7821177711439447 2.5715569713315656 -2.360235527187619 -1.570796326589793 -0.756884217108114 0.8139121098918858 -1.7821177711439447 2.5715569713315656 -2.360235527187619 -1.570796326589793 -0.756884217108114 -0.09999999999999999 -0.29999999999999977 0.19999999999999943 -8.719671245021577e-17 3.1415926535897922 1.609628687190301e-15 -0.09999999999999999 -0.29999999999999977 0.19999999999999943 -8.719671245021577e-17 3.1415926535897922 1.609628687190301e-15 1.0 0.16 0.04 False 2
9047.16 0.11141 0.8139121098918858 -1.7821177711439447 2.5715569713315656 -2.360235527187619 -1.570796326589793 -0.756884217108114 0.8139121098918858 -1.7821177711439447 2.5715569713315656 -2.360235527187619 -1.570796326589793 -0.756884217108114 -0.09999999999999999 -0.29999999999999977 0.19999999999999943 -8.719671245021577e-17 3.1415926535897922 1.609628687190301e-15 -0.09999999999999999 -0.29999999999999977 0.19999999999999943 -8.719671245021577e-17 3.1415926535897922 1.609628687190301e-15 1.0 0.16 0.04 False 2
9047.26 0.237373 0.8139121098918858 -1.7821177711439447 2.5715569713315656 -2.360235527187619 -1.570796326589793 -0.756884217108114 0.8139121098918858 -1.7821177711439447 2.5715569713315656 -2.360235527187619 -1.570796326589793 -0.756884217108114 -0.09999999999999999 -0.29999999999999977 0.19999999999999943 -8.719671245021577e-17 3.1415926535897922 1.609628687190301e-15 -0.09999999999999999 -0.29999999999999977 0.19999999999999943 -8.719671245021577e-17 3.1415926535897922 1.609628687190301e-15 1.0 0.16 0.04 False 2
9047.359999999999 0.26549700000000004 0.8139121098918858 -1.7821177711439447 2.5715569713315656 -2.360235527187619 -1.570796326589793 -0.756884217108114 0.8139121098918858 -1.7821177711439447 2.5715569713315656 -2.360235527187619 -1.570796326589793 -0.756884217108114 -0.09999999999999999 -0.29999999999999977 0.19999999999999943 -8.719671245021577e-17 3.1415926535897922 1.609628687190301e-15 -0.09999999999999999 -0.29999999999999977 0.19999999999999943 -8.719671245021577e-17 3.1415926535897922 1.609628687190301e-15 1.0 0.16 0.04 False 2
9047.46 0.180749 0.8139121098918858 -1.7821177711439447 2.5715569713315656 -2.360235527187619 -1.570796326589793 -0.756884217108114 0.8139121098918858 -1.7821177711439447 2.5715569713315656 -2.360235527187619 -1.570796326589793 -0.756884217108114 -0.09999999999999999 -0.29999999999999977 0.19999999999999943 -8.719671245021577e-17 3.1415926535897922 1.609628687190301e-15 -0.09999999999999999 -0.29999999999999977 0.19999999999999943 -8.719671245021577e-17 3.1415926535897922 1.609628687190301e-15 1.0 0.16 0.04 False 2
9047.56 0.119372 0.8139121098918858 -1.7821177711439447 2.5715569713315656 -2.360235527187619 -1.570796326589793 -0.756884217108114 0.8139121098918858 -1.7821177711439447 2.5715569713315656 -2.360235527187619 -1.570796326589793 -0.756884217108114 -0.09999999999999999 -0.29999999999999977 0.19999999999999943 -8.719671245021577e-17 3.1415926535897922 1.609628687190301e-15 -0.09999999999999999 -0.29999999999999977 0.19999999999999943 -8.719671245021577e-17 3.1415926535897922 1.609628687190301e-15 1.0 0.16 0.04 False 2
9047.66 0.186931 0.8139121098918858 -1.7821177711439447 2.5715569713315656 -2.360235527187619 -1.570796326589793 -0.756884217108114 0.8139121098918858 -1.7821177711439447 2.5715569713315656 -2.360235527187619 -1.570796326589793 -0.756884217108114 -0.09999999999999999 -0.29999999999999977 0.19999999999999943 -8.719671245021577e-17 3.1415926535897922 1.609628687190301e-15 -0.09999999999999999 -0.29999999999999977 0.19999999999999943 -8.719671245021577e-17 3.1415926535897922 1.609628687190301e-15 1.0 0.16 0.04 False 2
9047.76 0.084157 0.8139121098918858 -1.7821177711439447 2.5715569713315656 -2.360235527187619 -1.570796326589793 -0.756884217108114 0.8139121098918858 -1.7821177711439447 2.5715569713315656 -2.360235527187619 -1.570796326589793 -0.756884217108114 -0.09999999999999999 -0.29999999999999977 0.19999999999999943 -8.719671245021577e-17 3.1415926535897922 1.609628687190301e-15 -0.09999999999999999 -0.29999999999999977 0.19999999999999943 -8.719671245021577e-17 3.1415926535897922 1.609628687190301e-15 1.0 0.16 0.04 False 2
9047.859999999999 0.132456 0.8139121098918858 -1.7821177711439447 2.5715569713315656 -2.360235527187619 -1.570796326589793 -0.756884217108114 0.8139121098918858 -1.7821177711439447 2.5715569713315656 -2.360235527187619 -1.570796326589793 -0.756884217108114 -0.09999999999999999 -0.29999999999999977 0.19999999999999943 -8.719671245021577e-17 3.1415926535897922 1.609628687190301e-15 -0.09999999999999999 -0.29999999999999977 0.19999999999999943 -8.719671245021577e-17 3.1415926535897922 1.609628687190301e-15 1.0 0.16 0.04 False 2
9047.96 0.180812 0.8139121098918858 -1.7821177711439447 2.5715569713315656 -2.360235527187619 -1.570796326589793 -0.756884217108114 0.8139121098918858 -1.7821177711439447 2.5715569713315656 -2.360235527187619 -1.570796326589793 -0.756884217108114 -0.09999999999999999 -0.29999999999999977 0.19999999999999943 -8.719671245021577e-17 3.1415926535897922 1.609628687190301e-15 -0.09999999999999999 -0.29999999999999977 0.19999999999999943 -8.719671245021577e-17 3.1415926535897922 1.609628687190301e-15 1.0 0.16 0.04 False 2
9048.06 0.08501600000000001 0.8139121098918858 -1.7821177711439447 2.5715569713315656 -2.360235527187619 -1.570796326589793 -0.756884217108114 0.8139121098918858 -1.7821177711439447 2.5715569713315656 -2.360235527187619 -1.570796326589793 -0.756884217108114 -0.09999999999999999 -0.29999999999999977 0.19999999999999943 -8.719671245021577e-17 3.1415926535897922 1.609628687190301e-15 -0.09999999999999999 -0.29999999999999977 0.19999999999999943 -8.719671245021577e-17 3.1415926535897922 1.609628687190301e-15 1.0 0.16 0.04 False 2
9048.16 0.078896 0.8139121098918858 -1.7821177711439447 2.5715569713315656 -2.360235527187619 -1.570796326589793 -0.756884217108114 0.8139121098918858 -1.7821177711439447 2.5715569713315656 -2.360235527187619 -1.570796326589793 -0.756884217108114 -0.09999999999999999 -0.29999999999999977 0.19999999999999943 -8.719671245021577e-17 3.1415926535897922 1.609628687190301e-15 -0.09999999999999999 -0.29999999999999977 0.19999999999999943 -8.719671245021577e-17 3.1415926535897922 1.609628687190301e-15 1.0 0.16 0.04 False 2
9048.26 0.07690000000000001 0.8139121098918858 -1.7821177711439447 2.5715569713315656 -2.360235527187619 -1.570796326589793 -0.756884217108114 0.8139121098918858 -1.7821177711439447 2.5715569713315656 -2.360235527187619 -1.570796326589793 -0.756884217108114 -0.09999999999999999 -0.29999999999999977 0.19999999999999943 -8.719671245021577e-17 3.1415926535897922 1.609628687190301e-15 -0.09999999999999999 -0.29999999999999977 0.19999999999999943 -8.719671245021577e-17 3.1415926535897922 1.609628687190301e-15 1.0 0.04 0.2 False 2
9048.359999999999 0.07833499999999999 0.8139121098918858 -1.7821177711439447 2.5715569713315656 -2.360235527187619 -1.570796326589793 -0.756884217108114 0.8139121098918858 -1.7821177711439447 2.5715569713315656 -2.360235527187619 -1.570796326589793 -0.756884217108114 -0.09999999999999999 -0.29999999999999977 0.19999999999999943 -8.719671245021577e-17 3.1415926535897922 1.609628687190301e-15 -0.09999999999999999 -0.29999999999999977 0.19999999999999943 -8.719671245021577e-17 3.1415926535897922 1.609628687190301e-15 1.0 0.04 0.2 False 2
9048.46 0.08657 0.8139121098918858 -1.7821177711439447 2.5715569713315656 -2.360235527187619 -1.570796326589793 -0.756884217108114 0.8139121098918858 -1.7821177711439447 2.5715569713315656 -2.360235527187619 -1.570796326589793 -0.756884217108114 -0.09999999999999999 -0.29999999999999977 0.19999999999999943 -8.719671245021577e-17 3.1415926535897922 1.609628687190301e-15 -0.09999999999999999 -0.29999999999999977 0.19999999999999943 -8.719671245021577e-17 3.1415926535897922 1.609628687190301e-15 1.0 0.04 0.2 False 2
9048.56 0.14764 0.8139121098918858 -1.7821177711439447 2.5715569713315656 -2.360235527187619 -1.570796326589793 -0.756884217108114 0.8139121098918858 -1.7821177711439447 2.5715569713315656 -2.360235527187619 -1.570796326589793 -0.756884217108114 -0.09999999999999999 -0.29999999999999977 0.19999999999999943 -8.719671245021577e-17 3.1415926535897922 1.609628687190301e-15 -0.09999999999999999 -0.29999999999999977 0.19999999999999943 -8.719671245021577e-17 3.1415926535897922 1.609628687190301e-15 1.0 0.04 0.2 False 2
9048.66 0.157485 0.8139121098918858 -1.7821177711439447 2.5715569713315656 -2.360235527187619 -1.570796326589793 -0.756884217108114 0.8139121098918858 -1.7821177711439447 2.5715569713315656 -2.360235527187619 -1.570796326589793 -0.756884217108114 -0.09999999999999999 -0.29999999999999977 0.19999999999999943 -8.719671245021577e-17 3.1415926535897922 1.609628687190301e-15 -0.09999999999999999 -0.29999999999999977 0.19999999999999943 -8.719671245021577e-17 3.1415926535897922 1.609628687190301e-15 1.0 0.04 0.2 False 2
9048.76 0.190342 0.8139121098918858 -1.7821177711439447 2.5715569713315656 -2.360235527187619 -1.570796326589793 -0.756884217108114 0.8139121098918858 -1.7821177711439447 2.5715569713315656 -2.360235527187619 -1.570796326589793 -0.756884217108114 -0.09999999999999999 -0.29999999999999977 0.19999999999999943 -8.719671245021577e-17 3.1415926535897922 1.609628687190301e-15 -0.09999999999999999 -0.29999999999999977 0.19999999999999943 -8.719671245021577e-17 3.1415926535897922 1.609628687190301e-15 1.0 0.04 0.2 False 2
9048.859999999999 0.171491 0.8139121098918858 -1.7821177711439447 2.5715569713315656 -2.360235527187619 -1.570796326589793 -0.756884217108114 0.8139121098918858 -1.7821177711439447 2.5715569713315656 -2.360235527187619 -1.570796326589793 -0.756884217108114 -0.09999999999999999 -0.29999999999999977 0.19999999999999943 -8.719671245021577e-17 3.1415926535897922 1.609628687190301e-15 -0.09999999999999999 -0.29999999999999977 0.19999999999999943 -8.719671245021577e-17 3.1415926535897922 1.609628687190301e-15 1.0 0.04 0.2 False 2
9048.96 0.159862 0.8139121098918858 -1.7821177711439447 2.5715569713315656 -2.360235527187619 -1.570796326589793 -0.756884217108114 0.8139121098918858 -1.7821177711439447 2.5715569713315656 -2.360235527187619 -1.570796326589793 -0.756884217108114 -0.09999999999999999 -0.29999999999999977 0.19999999999999943 -8.719671245021577e-17 3.1415926535897922 1.609628687190301e-15 -0.09999999999999999 -0.29999999999999977 0.19999999999999943 -8.719671245021577e-17 3.1415926535897922 1.609628687190301e-15 1.0 0.04 0.2 False 2
9049.06 0.087713 0.8139121098918858 -1.7821177711439447 2.5715569713315656 -2.360235527187619 -1.570796326589793 -0.756884217108114 0.8139121098918858 -1.7821177711439447 2.5715569713315656 -2.360235527187619 -1.570796326589793 -0.756884217108114 -0.09999999999999999 -0.29999999999999977 0.19999999999999943 -8.719671245021577e-17 3.1415926535897922 1.609628687190301e-15 -0.09999999999999999 -0.29999999999999977 0.19999999999999943 -8.719671245021577e-17 3.1415926535897922 1.609628687190301e-15 1.0 0.04 0.2 False 2
9049.16 0.19713399999999998 0.8139121098918858 -1.7821177711439447 2.5715569713315656 -2.360235527187619 -1.570796326589793 -0.756884217108114 0.8139121098918858 -1.7821177711439447 2.5715569713315656 -2.360235527187619 -1.570796326589793 -0.756884217108114 -0.09999999999999999 -0.29999999999999977 0.19999999999999943 -8.719671245021577e-17 3.1415926535897922 1.609628687190301e-15 -0.09999999999999999 -0.29999999999999977 0.19999999999999943 -8.719671245021577e-17 3.1415926535897922 1.609628687190301e-15 1.0 0.04 0.2 False 2
9049.26 0.066441 0.8139121098918858 -1.7821177711439447 2.5715569713315656 -2.360235527187619 -1.570796326589793 -0.756884217108114 0.8139121098918858 -1.7821177711439447 2.5715569713315656 -2.360235527187619 -1.570796326589793 -0.756884217108114 -0.09999999999999999 -0.29999999999999977 0.19999999999999943 -8.719671245021577e-17 3.1415926535897922 1.609628687190301e-15 -0.09999999999999999 -0.29999999999999977 0.19999999999999943 -8.719671245021577e-17 3.1415926535897922 1.609628687190301e-15 1.0 0.04 0.2 False 2
9049.359999999999 0.066557 0.8139121098918858 -1.7821177711439447 2.5715569713315656 -2.360235527187619 -1.570796326589793 -0.756884217108114 0.8139121098918858 -1.7821177711439447 2.5715569713315656 -2.360235527187619 -1.570796326589793 -0.756884217108114 -0.09999999999999999 -0.29999999999999977 0.19999999999999943 -8.719671245021577e-17 3.1415926535897922 1.609628687190301e-15 -0.09999999999999999 -0.29999999999999977 0.19999999999999943 -8.719671245021577e-17 3.1415926535897922 1.609628687190301e-15 1.0 0.04 0.2 True 2
9049.46 0.151066 0.8139121098918858 -1.7821177711439447 2.5715569713315656 -2.360235527187619 -1.570796326589793 -0.756884217108114 0.8139121098918858 -1.7821177711439447 2.5715569713315656 -2.360235527187619 -1.570796326589793 -0.756884217108114 -0.09999999999999999 -0.29999999999999977 0.19999999999999943 -8.719671245021577e-17 3.1415926535897922 1.609628687190301e-15 -0.09999999999999999 -0.29999999999999977 0.19999999999999943 -8.719671245021577e-17 3.1415926535897922 1.609628687190301e-15 1.0 0.04 0.2 True 2
9049.56 0.075249 0.8139121098918858 -1.7821177711439447 2.5715569713315656 -2.360235527187619 -1.570796326589793 -0.756884217108114 0.8139121098918858 -1.7821177711439447 2.5715569713315656 -2.360235527187619 -1.570796326589793 -0.756884217108114 -0.09999999999999999 -0.29999999999999977 0.19999999999999943 -8.719671245021577e-17 3.1415926535897922 1.609628687190301e-15 -0.09999999999999999 -0.29999999999999977 0.19999999999999943 -8.719671245021577e-17 3.1415926535897922 1.609628687190301e-15 1.0 0.04 0.2 True 2
9049.66 0.06959900000000001 0.8139121098918858 -1.7821177711439447 2.5715569713315656 -2.360235527187619 -1.570796326589793 -0.756884217108114 0.8139121098918858 -1.7821177711439447 2.5715569713315656 -2.360235527187619 -1.570796326589793 -0.756884217108114 -0.09999999999999999 -0.29999999999999977 0.19999999999999943 -8.719671245021577e-17 3.1415926535897922 1.609628687190301e-15 -0.09999999999999999 -0.29999999999999977 0.19999999999999943 -8.719671245021577e-17 3.1415926535897922 1.609628687190301e-15 1.0 0.04 0.2 True 2
9049.76 0.09681000000000001 0.8139121098918858 -1.7821177711439447 2.5715569713315656 -2.360235527187619 -1.570796326589793 -0.756884217108114 0.8139121098918858 -1.7821177711439447 2.5715569713315656 -2.360235527187619 -1.570796326589793 -0.756884217108114 -0.09999999999999999 -0.29999999999999977 0.19999999999999943 -8.719671245021577e-17 3.1415926535897922 1.609628687190301e-15 -0.09999999999999999 -0.29999999999999977 0.19999999999999943 -8.719671245021577e-17 3.1415926535897922 1.609628687190301e-15 1.0 0.04 0.2 True 2
9049.859999999999 0.09447499999999999 0.8139121098918858 -1.7821177711439447 2.5715569713315656 -2.360235527187619 -1.570796326589793 -0.756884217108114 0.8139121098918858 -1.7821177711439447 2.5715569713315656 -2.360235527187619 -1.570796326589793 -0.756884217108114 -0.09999999999999999 -0.29999999999999977 0.19999999999999943 -8.719671245021577e-17 3.1415926535897922 1.609628687190301e-15 -0.09999999999999999 -0.29999999999999977 0.19999999999999943 -8.719671245021577e-17 3.1415926535897922 1.609628687190301e-15 1.0 0.04 0.2 True 2
9049.96 0.095223 0.8139121098918858 -1.7821177711439447 2.5715569713315656 -2.360235527187619 -1.570796326589793 -0.756884217108114 0.8139121098918858 -1.7821177711439447 2.5715569713315656 -2.360235527187619 -1.570796326589793 -0.756884217108114 -0.09999999999999999 -0.29999999999999977 0.19999999999999943 -8.719671245021577e-17 3.1415926535897922 1.609628687190301e-15 -0.09999999999999999 -0.29999999999999977 0.19999999999999943 -8.719671245021577e-17 3.1415926535897922 1.609628687190301e-15 1.0 0.04 0.2 True 2
9050.06 0.091245 0.8139121098918858 -1.7821177711439447 2.5715569713315656 -2.360235527187619 -1.570796326589793 -0.756884217108114 0.8139121098918858 -1.7821177711439447 2.5715569713315656 -2.360235527187619 -1.570796326589793 -0.756884217108114 -0.09999999999999999 -0.29999999999999977 0.19999999999999943 -8.719671245021577e-17 3.1415926535897922 1.609628687190301e-15 -0.09999999999999999 -0.29999999999999977 0.19999999999999943 -8.719671245021577e-17 3.1415926535897922 1.609628687190301e-15 1.0 0.04 0.2 True 2
9050.16 0.20346899999999998 0.8139121098918858 -1.7821177711439447 2.5715569713315656 -2.360235527187619 -1.570796326589793 -0.756884217108114 0.8139121098918858 -1.7821177711439447 2.5715569713315656 -2.360235527187619 -1.570796326589793 -0.756884217108114 -0.09999999999999999 -0.29999999999999977 0.19999999999999943 -8.719671245021577e-17 3.1415926535897922 1.609628687190301e-15 -0.09999999999999999 -0.29999999999999977 0.19999999999999943 -8.719671245021577e-17 3.1415926535897922 1.609628687190301e-15 1.0 0.04 0.2 True 2
9050.26 0.167655 0.8139121098918858 -1.7821177711439447 2.5715569713315656 -2.360235527187619 -1.570796326589793 -0.756884217108114 0.8139121098918858 -1.7821177711439447 2.5715569713315656 -2.360235527187619 -1.570796326589793 -0.756884217108114 -0.09999999999999999 -0.29999999999999977 0.19999999999999943 -8.719671245021577e-17 3.1415926535897922 1.609628687190301e-15 -0.09999999999999999 -0.29999999999999977 0.19999999999999943 -8.719671245021577e-17 3.1415926535897922 1.609628687190301e-15 1.0 0.04 0.2 True 2
9050.359999999999 0.13652099999999998 0.8139121098918858 -1.7821177711439447 2.5715569713315656 -2.360235527187619 -1.570796326589793 -0.756884217108114 0.8139121098918858 -1.7821177711439447 2.5715569713315656 -2.360235527187619 -1.570796326589793 -0.756884217108114 -0.09999999999999999 -0.29999999999999977 0.19999999999999943 -8.719671245021577e-17 3.1415926535897922 1.609628687190301e-15 -0.09999999999999999 -0.29999999999999977 0.19999999999999943 -8.719671245021577e-17 3.1415926535897922 1.609628687190301e-15 1.0 0.04 0.2 True 2
9050.46 0.178704 0.8139121098918858 -1.7821177711439447 2.5715569713315656 -2.360235527187619 -1.570796326589793 -0.756884217108114 0.8139121098918858 -1.7821177711439447 2.5715569713315656 -2.360235527187619 -1.570796326589793 -0.756884217108114 -0.09999999999999999 -0.29999999999999977 0.19999999999999943 -8.719671245021577e-17 3.1415926535897922 1.609628687190301e-15 -0.09999999999999999 -0.29999999999999977 0.19999999999999943 -8.719671245021577e-17 3.1415926535897922 1.609628687190301e-15 1.0 0.04 0.2 True 2
9050.56 0.097291 0.8139121098918858 -1.7821177711439447 2.5715569713315656 -2.360235527187619 -1.570796326589793 -0.756884217108114 0.8139121098918858 -1.7821177711439447 2.5715569713315656 -2.360235527187619 -1.570796326589793 -0.756884217108114 -0.09999999999999999 -0.29999999999999977 0.19999999999999943 -8.719671245021577e-17 3.1415926535897922 1.609628687190301e-15 -0.09999999999999999 -0.29999999999999977 0.19999999999999943 -8.719671245021577e-17 3.1415926535897922 1.609628687190301e-15 1.0 0.04 0.2 True 2
9050.66 0.075818 0.8139121098918858 -1.7821177711439447 2.5715569713315656 -2.360235527187619 -1.570796326589793 -0.756884217108114 0.8139121098918858 -1.7821177711439447 2.5715569713315656 -2.360235527187619 -1.570796326589793 -0.756884217108114 -0.09999999999999999 -0.29999999999999977 0.19999999999999943 -8.719671245021577e-17 3.1415926535897922 1.609628687190301e-15 -0.09999999999999999 -0.29999999999999977 0.19999999999999943 -8.719671245021577e-17 3.1415926535897922 1.609628687190301e-15 1.0 0.04 0.2 True 2
9050.76 0.121863 0.8116550638872295 -1.7875241030349223 2.5736392749848283 -2.3569114989499043 -1.570796326589793 -0.7591412631127703 0.8116550638872295 -1.7875241030349223 2.5736392749848283 -2.3569114989499043 -1.570796326589793 -0.7591412631127703 -0.0997674572143435 -0.2988150747172653 0.20043163148613566 0.0 3.1415926535897922 1.4918135218442906e-15 -0.0997674572143435 -0.2988150747172653 0.20043163148613566 0.0 3.1415926535897922 1.4918135218442906e-15 1.0 0.04 0.2 True 2
9050.859999999999 0.190634 0.8036108400069979 -1.8067925379769392 2.581060708459784 -2.3450644974828427 -1.570796326589793 -0.7671854869930019 0.8036108400069979 -1.8067925379769392 2.581060708459784 -2.3450644974828427 -1.570796326589793 -0.7671854869930019 -0.09889747412690465 -0.294611047604165 0.2018962910166284 8.719671245021576e-17 3.141592653589792 2.091117104701187e-15 -0.09889747412690465 -0.294611047604165 0.2018962910166284 8.719671245021576e-17 3.141592653589792 2.091117104701187e-15 1.0 0.04 0.2 True 2
9050.96 0.22043000000000001 0.7897374683874681 -1.8400236069349116 2.5938599922789103 -2.324632712343997 -1.570796326589793 -0.781058858612532 0.7897374683874681 -1.8400236069349116 2.5938599922789103 -2.324632712343997 -1.570796326589793 -0.781058858612532 -0.0972510247540238 -0.2874367555512102 0.20415243191945406 -3.9238520602597097e-16 3.1415926535897922 1.5071437650229787e-15 -0.0972510247540238 -0.2874367555512102 0.20415243191945406 -3.9238520602597097e-16 3.1415926535897922 1.5071437650229787e-15 1.0 0.04 0.2 True 2
9051.06 0.181325 0.7700349490286399 -1.8872173099088387 2.612037126442207 -2.295616143533367 -1.570796326589793 -0.8007613779713605 0.7700349490286399 -1.8872173099088387 2.612037126442207 -2.295616143533367 -1.570796326589793 -0.8007613779713605 -0.09461485919985928 -0.27743543844362895 0.2067721279723462 -6.539753433766186e-16 3.1415926535897927 9.700256278250224e-16 -0.09461485919985928 -0.27743543844362895 0.2067721279723462 -6.539753433766186e-16 3.1415926535897927 9.700256278250224e-16 1.0 0.04 0.2 True 2
9051.16 0.221915 0.7445032819305135 -1.9483736468987196 2.6355921109496743 -2.258014791050954 -1.570796326589793 -0.8262930450694865 0.7445032819305135 -1.9483736468987196 2.6355921109496743 -2.258014791050954 -1.570796326589793 -0.8262930450694865 -0.09073022949247124 -0.26485299674452706 0.20915567391308318 -4.3598356225107897e-16 3.141592653589793 6.483291583595072e-16 -0.09073022949247124 -0.26485299674452706 0.20915567391308318 -4.3598356225107897e-16 3.141592653589793 6.483291583595072e-16 1.0 0.04 0.2 True 2
9051.26 0.145565 0.7131424670930889 -2.023492617904556 2.6645249458013125 -2.211828654896756 -1.570796326589793 -0.857653859906911 0.7131424670930889 -2.023492617904556 2.6645249458013125 -2.211828654896756 -1.570796326589793 -0.857653859906911 -0.08534423682755497 -0.2500739441923605 0.21054551172902217 -2.1799178112553949e-16 3.141592653589793 4.8073788455099283e-17 -0.08534423682755497 -0.2500739441923605 0.21054551172902217 -2.1799178112553949e-16 3.141592653589793 4.8073788455099283e-17 1.0 0.04 0.2 True 2
9051.359999999999 0.128499 0.6783395187030826 -2.1068565765446428 2.696633421404966 -2.1605731718603227 -1.570796326589793 -0.8924568082969175 0.6783395187030826 -2.1068565765446428 2.696633421404966 -2.1605731718603227 -1.570796326589793 -0.8924568082969175 -0.07875284880478316 -0.2346696602055296 0.2101521618501532 -4.3598356225107897e-16 3.141592653589793 7.743596776874776e-17 -0.07875284880478316 -0.2346696602055296 0.2101521618501532 -4.3598356225107897e-16 3.141592653589793 7.743596776874776e-17 1.0 0.04 0.2 True 2
9051.46 0.129136 0.6486099202864186 -2.1780682734681385 2.7240613299479666 -2.116789383479828 -1.570796326589793 -0.9221864067135819 0.6486099202864186 -2.1780682734681385 2.7240613299479666 -2.116789383479828 -1.570796326589793 -0.9221864067135819 -0.07277371313381867 -0.22243152772863006 0.2082567790257974 -1.177155618077913e-15 3.1415926535897927 -3.6979774342452923e-16 -0.07277371313381867 -0.22243152772863006 0.2082567790257974 -1.177155618077913e-15 3.1415926535897927 -3.6979774342452923e-16 1.0 0.04 0.2 True 2
9051.56 0.216782 0.6247094696090527 -2.2353173363756795 2.7461113881467965 -2.081590378771118 -1.570796326589793 -0.9460868573909478 0.6247094696090527 -2.2353173363756795 2.7461113881467965 -2.081590378771118 -1.570796326589793 -0.9460868573909478 -0.0678377739133584 -0.21325195238277173 0.20573035846919874 -1.0463605494025891e-15 3.141592653589792 -1.1230349296789623e-15 -0.0678377739133584 -0.21325195238277173 0.20573035846919874 -1.0463605494025891e-15 3.141592653589792 -1.1230349296789623e-15 1.0 0.04 0.2 True 2
9051.66 0.233867 0.6066381666709852 -2.278603765267265 2.762783596001456 -2.054976157734192 -1.570796326589793 -0.9641581603290152 0.6066381666709852 -2.278603765267265 2.762783596001456 -2.054976157734192 -1.570796326589793 -0.9641581603290152 -0.06407988991182961 -0.2067172057264274 0.20324814261696647 -1.0027621931774812e-15 3.141592653589792 -1.1047427106239614e-15 -0.06407988991182961 -0.2067172057264274 0.20324814261696647 -1.0027621931774812e-15 3.141592653589792 -1.1047427106239614e-15 1.0 0.04 0.2 True 2
9051.76 0.191209 0.594396011472216 -2.307927560142896 2.7740779535119446 -2.0369467203690492 -1.570796326589793 -0.9764003155277852 0.594396011472216 -2.307927560142896 2.7740779535119446 -2.0369467203690492 -1.570796326589793 -0.9764003155277852 -0.061540397237921006 -0.20249341951351524 0.20129536959948183 -2.2235161674805023e-15 3.1415926535897922 -7.229343128736037e-16 -0.061540397237921006 -0.20249341951351524 0.20129536959948183 -2.2235161674805023e-15 3.1415926535897922 -7.229343128736037e-16 1.0 0.04 0.2 True 2
9051.859999999999 0.18975999999999998 0.587983004012745 -2.3232887210025726 2.7799944606782625 -2.027502066675691 -1.570796326589793 -0.9828133229872558 0.587983004012745 -2.3232887210025726 2.7799944606782625 -2.027502066675691 -1.570796326589793 -0.9828133229872558 -0.060216222396117965 -0.2003470119617916 0.2001869692541179 -1.4823441116536678e-15 3.141592653589792 -1.090289833507208e-15 -0.060216222396117965 -0.2003470119617916 0.2001869692541179 -1.4823441116536678e-15 3.141592653589792 -1.090289833507208e-15 1.0 0.04 0.2 True 2
9051.96 0.20710800000000001 0.5869331903765583 -2.322968582823605 2.783197703334361 -2.031025447510757 -1.570796326589793 -0.9838631366234427 0.5869331903765583 -2.322968582823605 2.783197703334361 -2.031025447510757 -1.570796326589793 -0.9838631366234427 -0.060000000000013404 -0.20000000000000878 0.19904077795640562 -1.9619260301298546e-15 3.141592653589792 -1.0621596259434782e-15 -0.060000000000013404 -0.20000000000000878 0.19904077795640562 -1.9619260301298546e-15 3.141592653589792 -1.0621596259434782e-15 1.0 0.04 0.2 True 2
9052.06 0.219608 0.5869331903903383 -2.2876752646838683 2.8081789403524815 -2.0913000026686115 -1.570796326589793 -0.9838631366096626 0.5869331903903383 -2.2876752646838683 2.8081789403524815 -2.0913000026686115 -1.570796326589793 -0.9838631366096626 -0.06000000000014898 -0.2000000000000991 0.18824272324152566 -1.7003358927792075e-15 3.1415926535897922 1.2303707393772328e-15 -0.06000000000014898 -0.2000000000000991 0.18824272324152566 -1.7003358927792075e-15 3.1415926535897922 1.2303707393772328e-15 1.0 0.04 0.2 True 2
9052.16 0.156002 0.5869331904186645 -2.191358083761422 2.8583140392027584 -2.2377522824413347 -1.570796326589793 -0.983863136581336 0.5869331904186645 -2.191358083761422 2.8583140392027584 -2.2377522824413347 -1.570796326589793 -0.983863136581336 -0.06000000000018907 -0.20000000000012572 0.16604577662847944 -1.0027621931774814e-15 3.1415926535897922 1.2303770658243808e-15 -0.06000000000018907 -0.20000000000012572 0.16604577662847944 -1.0027621931774814e-15 3.1415926535897922 1.2303770658243808e-15 1.0 0.04 0.2 True 2
9052.26 0.274981 0.5869331904505668 -2.028931203784291 2.9119139478389813 -2.4537790710546896 -1.570796326589793 -0.9838631365494335 0.5869331904505668 -2.028931203784291 2.9119139478389813 -2.4537790710546896 -1.570796326589793 -0.9838631365494335 -0.06000000000006938 -0.20000000000004578 0.1410457539722189 -6.539753433766184e-16 3.1415926535897927 5.388723553418953e-16 -0.06000000000006938 -0.20000000000004578 0.1410457539722189 -6.539753433766184e-16 3.1415926535897927 5.388723553418953e-16 1.0 0.04 0.2 True 2
9052.359999999999 0.12821100000000002 0.5869331904812461 -1.7925549358250832 2.9584531305973027 -2.736694521772219 -1.570796326589793 -0.9838631365187531 0.5869331904812461 -1.7925549358250832 2.9584531305973027 -2.736694521772219 -1.570796326589793 -0.9838631365187531 -0.06000000000040252 -0.20000000000026727 0.11700496755396787 8.2836876827705e-16 3.141592653589793 1.0592657703412359e-16 -0.06000000000040252 -0.20000000000026727 0.11700496755396787 8.2836876827705e-16 3.141592653589793 1.0592657703412359e-16 1.0 0.04 0.2 True 2
9052.46 0.158404 0.5869331904993706 -1.6050770832019383 2.9819341254468705 -2.947653369244933 -1.570796326589793 -0.9838631365006281 0.5869331904993706 -1.6050770832019383 2.9819341254468705 -2.947653369244933 -1.570796326589793 -0.9838631365006281 -0.060000000000475645 -0.20000000000031604 0.10280301191937224 1.7003358927792073e-15 3.141592653589792 -1.0621321970923715e-15 -0.060000000000475645 -0.20000000000031604 0.10280301191937224 1.7003358927792073e-15 3.141592653589792 -1.0621321970923715e-15 1.0 0.04 0.2 True 2
9052.56 0.10504999999999999 0.5869331905029481 -1.5636650909597725 2.986059460077184 -2.993190696117411 -1.570796326589793 -0.9838631364970505 0.5869331905029481 -1.5636650909597725 2.986059460077184 -2.993190696117411 -1.570796326589793 -0.9838631364970505 -0.060000000000346235 -0.20000000000023005 0.10000001121251592 2.005524386354963e-15 3.141592653589793 1.0593142395198865e-16 -0.060000000000346235 -0.20000000000023005 0.10000001121251592 2.005524386354963e-15 3.141592653589793 1.0593142395198865e-16 1.0 0.04 0.2 True 2
9052.66 0.164176 0.5869331905029481 -1.5636650909597725 2.986059460077184 -2.993190696117411 -1.570796326589793 -0.9838631364970505 0.5869331905029481 -1.5636650909597725 2.986059460077184 -2.993190696117411 -1.570796326589793 -0.9838631364970505 -0.060000000000346235 -0.20000000000023005 0.10000001121251592 2.005524386354963e-15 3.141592653589793 1.0593142395198865e-16 -0.060000000000346235 -0.20000000000023005 0.10000001121251592 2.005524386354963e-15 3.141592653589793 1.0593142395198865e-16 1.0 0.04 0.2 True 2
9052.76 0.085991 0.5869331905029481 -1.5636650909597725 2.986059460077184 -2.993190696117411 -1.570796326589793 -0.9838631364970505 0.5869331905029481 -1.5636650909597725 2.986059460077184 -2.993190696117411 -1.570796326589793 -0.9838631364970505 -0.060000000000346235 -0.20000000000023005 0.10000001121251592 2.005524386354963e-15 3.141592653589793 1.0593142395198865e-16 -0.060000000000346235 -0.20000000000023005 0.10000001121251592 2.005524386354963e-15 3.141592653589793 1.0593142395198865e-16 1.0 0.04 0.2 True 2
9052.859999999999 0.180598 0.5869331905021811 -1.5726626927766674 2.985191257301821 -2.9833248915251542 -1.570796326589793 -0.9838631364978179 0.5869331905021811 -1.5726626927766674 2.985191257301821 -2.9833248915251542 -1.570796326589793 -0.9838631364978179 -0.0600000000003426 -0.20000000000022766 0.10060106202986352 1.177155618077913e-15 3.1415926535897922 -6.498051019040824e-16 -0.0600000000003426 -0.20000000000022766 0.10060106202986352 1.177155618077913e-15 3.1415926535897922 -6.498051019040824e-16 1.0 0.04 0.2 True 2
9052.96 0.15415600000000002 0.5869331904896774 -1.7100528397518584 2.9698596906209365 -2.8306031778690786 -1.570796326589793 -0.9838631365103216 0.5869331904896774 -1.7100528397518584 2.9698596906209365 -2.8306031778690786 -1.570796326589793 -0.9838631365103216 -0.06000000000020089 -0.20000000000013343 0.11039911674485173 1.2207539743030207e-15 3.1415926535897922 -6.727800879732341e-16 -0.06000000000020089 -0.20000000000013343 0.11039911674485173 1.2207539743030207e-15 3.1415926535897922 -6.727800879732341e-16 1.0 0.04 0.2 True 2
9053.06 0.448447 0.5869331904622767 -1.9496499154001823 2.9304326475295293 -2.551579059129347 -1.570796326589793 -0.9838631365377228 0.5869331904622767 -1.9496499154001823 2.9304326475295293 -2.551579059129347 -1.570796326589793 -0.9838631365377228 -0.05999999999928327 -0.19999999999952317 0.13187096449165622 5.667786309264026e-16 3.1415926535897927 -2.398335774264543e-16 -0.05999999999928327 -0.19999999999952317 0.13187096449165622 5.667786309264026e-16 3.1415926535897927 -2.398335774264543e-16 1.0 0.04 0.2 True 2
9053.16 0.342955 0.5869331904303744 -2.1396380755276923 2.8784186719870566 -2.3095769234593644 -1.570796326589793 -0.9838631365696244 0.5869331904303744 -2.1396380755276923 2.8784186719870566 -2.3095769234593644 -1.570796326589793 -0.9838631365696244 -0.05999999999961212 -0.1999999999997422 0.15687096213547772 1.7003358927792077e-15 3.1415926535897927 -3.0758426756066886e-16 -0.05999999999961212 -0.1999999999997422 0.15687096213547772 1.7003358927792077e-15 3.1415926535897927 -3.0758426756066886e-16 1.0 0.04 0.2 True 2
9053.26 0.142989 0.5869331903992385 -2.2612167046255065 2.8241225895112754 -2.13370221188577 -1.570796326589793 -0.9838631366007604 0.5869331903992385 -2.2612167046255065 2.8241225895112754 -2.13370221188577 -1.570796326589793 -0.9838631366007604 -0.0599999999995858 -0.1999999999997248 0.18126985090554668 1.3951473992034521e-15 3.141592653589792 -1.0185562043498189e-15 -0.0599999999995858 -0.1999999999997248 0.18126985090554668 1.3951473992034521e-15 3.141592653589792 -1.0185562043498189e-15 1.0 0.04 0.2 True 2
9053.359999999999 0.222304 0.586933190379838 -2.3151460319451824 2.789170635931495 -2.0448209309863135 -1.570796326589793 -0.9838631366201618 0.586933190379838 -2.3151460319451824 2.789170635931495 -2.0448209309863135 -1.570796326589793 -0.9838631366201618 -0.05999999999953208 -0.199999999999689 0.19647181260485763 0.0 3.141592653589792 -1.0185605372534222e-15 -0.05999999999953208 -0.199999999999689 0.19647181260485763 0.0 3.141592653589792 -1.0185605372534222e-15 1.0 0.04 0.2 True 2
9053.46 0.233868 0.5867513310684481 -2.325423719562716 2.780735016986907 -2.0261076244241902 -1.570796326589793 -0.9840449959315523 0.5867513310684481 -2.325423719562716 2.780735016986907 -2.0261076244241902 -1.570796326589793 -0.9840449959315523 -0.06011245992005244 -0.20003967376010953 0.20005712477685644 -8.719671245021581e-16 3.1415926535897927 4.211712328218537e-16 -0.06011245992005244 -0.20003967376010953 0.20005712477685644 -8.719671245021581e-16 3.1415926535897927 4.211712328218537e-16 1.0 0.04 0.2 True 2
9053.56 0.144611 0.5818465500617928 -2.315186711797559 2.77458493103993 -2.0301945462423703 -1.570796326589793 -0.988949776938207 0.5818465500617928 -2.315186711797559 2.77458493103993 -2.0301945462423703 -1.570796326589793 -0.988949776938207 -0.06316231127409257 -0.20110372217114408 0.20158302255247262 4.35983562251079e-17 3.141592653589793 4.562364901381366e-16 -0.06316231127409257 -0.20110372217114408 0.20158302255247262 4.35983562251079e-17 3.141592653589793 4.562364901381366e-16 1.0 0.04 0.2 True 2
9053.66 0.17139400000000002 0.5702519565928057 -2.2909870700164467 2.7600465151029554 -2.039855772086508 -1.570796326589793 -1.0005443704071944 0.5702519565928057 -2.2909870700164467 2.7600465151029554 -2.039855772086508 -1.570796326589793 -1.0005443704071944 -0.07049955576559606 -0.20357080205645958 0.2050709396021663 -3.92385206025971e-16 3.1415926535897927 4.731769070690579e-16 -0.07049955576559606 -0.20357080205645958 0.2050709396021663 -3.92385206025971e-16 3.1415926535897927 4.731769070690579e-16 1.0 0.04 0.2 True 2
9053.76 0.221321 0.5519675506614871 -2.2528247942193804 2.737119769175984 -2.055091301956603 -1.570796326589793 -1.0188287763385127 0.5519675506614871 -2.2528247942193804 2.737119769175984 -2.055091301956603 -1.570796326589793 -1.0188287763385127 -0.08242746240207305 -0.20730840839434475 0.21022339337215043 4.359835622510789e-17 3.1415926535897927 5.201164947085337e-16 -0.08242746240207305 -0.20730840839434475 0.21022339337215043 4.359835622510789e-17 3.1415926535897927 5.201164947085337e-16 1.0 0.04 0.2 True 2
9053.859999999999 0.103897 0.5269933322678367 -2.200699884406359 2.7058046932590147 -2.0759011358526553 -1.570796326589793 -1.0438029947321628 0.5269933322678367 -2.200699884406359 2.7058046932590147 -2.0759011358526553 -1.570796326589793 -1.0438029947321628 -0.09940133933035389 -0.21206490000938547 0.21655058530016316 5.667786309264027e-16 3.141592653589793 6.286901207277542e-17 -0.09940133933035389 -0.21206490000938547 0.21655058530016316 5.667786309264027e-16 3.141592653589793 6.286901207277542e-17 1.0 0.04 0.2 True 2
9053.96 0.18404900000000002 0.49532930141185477 -2.134612340577384 2.6661012873520487 -2.1022852737746645 -1.570796326589793 -1.0754670255881456 0.49532930141185477 -2.134612340577384 2.6661012873520487 -2.1022852737746645 -1.570796326589793 -1.0754670255881456 -0.12199038148292886 -0.21741529804808254 0.22334551609826553 -9.591638369523736e-16 3.141592653589793 1.340716702819479e-16 -0.12199038148292886 -0.21741529804808254 0.22334551609826553 -9.591638369523736e-16 3.141592653589793 1.340716702819479e-16 1.0 0.04 0.2 True 2
9054.06 0.129466 0.4569754580935411 -2.054562162732453 2.6180095514550845 -2.134243715722631 -1.570796326589793 -1.1138208689064584 0.4569754580935411 -2.054562162732453 2.6180095514550845 -2.134243715722631 -1.570796326589793 -1.1138208689064584 -0.1508128417354972 -0.22269447140601006 0.22965557112969784 3.9238520602597107e-16 3.141592653589793 6.473226225788068e-17 -0.1508128417354972 -0.22269447140601006 0.22965557112969784 3.9238520602597107e-16 3.141592653589793 6.473226225788068e-17 1.0 0.04 0.2 True 2
9054.16 0.115775 0.4119318023128959 -1.9605493508715677 2.5615294855681237 -2.171776461696555 -1.570796326589793 -1.1588645246871039 0.4119318023128959 -1.9605493508715677 2.5615294855681237 -2.171776461696555 -1.570796326589793 -1.1588645246871039 -0.18643459150025452 -0.22692742198725585 0.23425630689175256 4.359835622510789e-17 3.1415926535897927 4.185458496191297e-16 -0.18643459150025452 -0.22692742198725585 0.23425630689175256 4.359835622510789e-17 3.1415926535897927 4.185458496191297e-16 1.0 0.04 0.2 True 2
9054.26 0.209464 0.36199635732234237 -1.8563266470584434 2.4989156240979122 -2.213385304039468 -1.570796326589793 -1.2087999696776581 0.36199635732234237 -1.8563266470584434 2.4989156240979122 -2.213385304039468 -1.570796326589793 -1.2087999696776581 -0.22770774157722942 -0.22876684743975878 0.23565906434867542 -1.220753974303021e-15 3.1415926535897927 4.00498171470522e-16 -0.22770774157722942 -0.22876684743975878 0.23565906434867542 -1.220753974303021e-15 3.1415926535897927 4.00498171470522e-16 1.0 0.04 0.2 True 2
9054.359999999999 0.235147 0.31367218756611454 -1.7554669144081956 2.4383221344163477 -2.253651547008153 -1.570796326589793 -1.257124139433886 0.31367218756611454 -1.7554669144081956 2.4383221344163477 -2.253651547008153 -1.570796326589793 -1.257124139433886 -0.2688861814838959 -0.2273593968764329 0.2331912794259615 -9.591638369523732e-16 3.141592653589792 -5.220657949937073e-16 -0.2688861814838959 -0.2273593968764329 0.2331912794259615 -9.591638369523732e-16 3.141592653589792 -5.220657949937073e-16 1.0 0.04 0.2 True 2
9054.46 0.178381 0.2718178943213693 -1.6681107767192263 2.3858411978860774 -2.288526748166851 -1.570796326589793 -1.2989784326786307 0.2718178943213693 -1.6681107767192263 2.3858411978860774 -2.288526748166851 -1.570796326589793 -1.2989784326786307 -0.30507035666574134 -0.22340879812963318 0.22794839198908212 -2.6159013735064733e-16 3.1415926535897927 -1.9110200635978816e-17 -0.30507035666574134 -0.22340879812963318 0.22794839198908212 -2.6159013735064733e-16 3.1415926535897927 -1.9110200635978816e-17 1.0 0.04 0.2 True 2
9054.56 0.242255 0.2366905492288323 -1.5911026982700394 2.343063239705493 -2.3227568684354543 -1.570796326589793 -1.3341057777711676 0.2366905492288323 -1.5911026982700394 2.343063239705493 -2.3227568684354543 -1.570796326589793 -1.3341057777711676 -0.33573164842381786 -0.21810554939557697 0.21991155797895579 -8.719671245021577e-17 3.1415926535897922 -1.4597029197003622e-16 -0.33573164842381786 -0.21810554939557697 0.21991155797895579 -8.719671245021577e-17 3.1415926535897922 -1.4597029197003622e-16 1.0 0.04 0.2 True 2
9054.66 0.285626 0.20847873044063125 -1.509987196630247 2.315039898067652 -2.3758490284374054 -1.570796326589793 -1.362317596559369 0.20847873044063125 -1.509987196630247 2.315039898067652 -2.3758490284374054 -1.570796326589793 -1.362317596559369 -0.3611580558944488 -0.21265415705654303 0.20439036609756076 -7.8477041205194195e-16 3.1415926535897922 -9.840093893088726e-17 -0.3611580558944488 -0.21265415705654303 0.20439036609756076 -7.8477041205194195e-16 3.1415926535897922 -9.840093893088726e-17 1.0 0.04 0.2 True 2
9054.76 0.207327 0.18728859001182785 -1.4203909570555426 2.302660463408722 -2.45306583335318 -1.570796326589793 -1.3835077369881725 0.18728859001182785 -1.4203909570555426 2.302660463408722 -2.45306583335318 -1.570796326589793 -1.3835077369881725 -0.38055066978791946 -0.20779055169286156 0.1802517902482815 -1.0027621931774814e-15 3.1415926535897922 -1.2472720802843316e-16 -0.38055066978791946 -0.20779055169286156 0.1802517902482815 -1.0027621931774814e-15 3.1415926535897922 -1.2472720802843316e-16 1.0 0.04 0.2 True 2
9054.859999999999 0.18262799999999998 0.17292986717318776 -1.329525191126387 2.3022752496333134 -2.543546385506927 -1.570796326589793 -1.3978664598268136 0.17292986717318776 -1.329525191126387 2.3022752496333134 -2.543546385506927 -1.570796326589793 -1.3978664598268136 -0.3928361827549779 -0.20393677426062048 0.15146122168283688 -2.3979095923809337e-15 3.1415926535897922 -7.693761886033276e-17 -0.3928361827549779 -0.20393677426062048 0.15146122168283688 -2.3979095923809337e-15 3.1415926535897922 -7.693761886033276e-17 1.0 0.04 0.2 True 2
9054.96 0.36280900000000005 0.16474856773891097 -1.2506742780977689 2.3079482916201726 -2.6280703405224046 -1.570796326589793 -1.4060477592610905 0.16474856773891097 -1.2506742780977689 2.3079482916201726 -2.6280703405224046 -1.570796326589793 -1.4060477592610905 -0.3984761726633881 -0.20137855070194957 0.12469485201265096 -2.594102195393919e-15 3.141592653589792 -1.6344281199137672e-16 -0.3984761726633881 -0.20137855070194957 0.12469485201265096 -2.594102195393919e-15 3.141592653589792 -1.6344281199137672e-16 1.0 0.04 0.2 True 2
9055.06 0.133026 0.16145964866043638 -1.197683799540897 2.313710267188173 -2.6868227946472762 -1.570796326589793 -1.4093366783395656 0.16145964866043638 -1.197683799540897 2.313710267188173 -2.6868227946472762 -1.570796326589793 -1.4093366783395656 -0.399913640133292 -0.20019351367085128 0.10632121736363251 -3.335274251220753e-15 3.1415926535897922 -5.973034638748854e-17 -0.399913640133292 -0.20019351367085128 0.10632121736363251 -3.335274251220753e-15 3.1415926535897922 -5.973034638748854e-17 1.0 0.04 0.2 True 2
9055.16 0.121161 0.16097974726748462 -1.179448671926182 2.3158113789813113 -2.7071590340551324 -1.570796326589793 -1.4098165797325182 0.16097974726748462 -1.179448671926182 2.3158113789813113 -2.7071590340551324 -1.570796326589793 -1.4098165797325182 -0.4000000000935057 -0.2000000017151809 0.10000025610765312 -4.708622472311648e-15 3.1415926535897896 -7.340772972435606e-16 -0.4000000000935057 -0.2000000017151809 0.10000025610765312 -4.708622472311648e-15 3.1415926535897896 -7.340772972435606e-16 1.0 0.04 0.2 True 2
9055.26 0.07287600000000001 0.16097974725470604 -1.1794479379111849 2.315811455533854 -2.7071598446226717 -1.570796326589793 -1.4098165797452964 0.16097974725470604 -1.1794479379111849 2.315811455533854 -2.7071598446226717 -1.570796326589793 -1.4098165797452964 -0.4000000000932017 -0.20000000170960497 0.10000000331173936 -4.1418438413852464e-15 3.14159265358979 -6.00338724862593e-16 -0.4000000000932017 -0.20000000170960497 0.10000000331173936 -4.1418438413852464e-15 3.14159265358979 -6.00338724862593e-16 1.0 0.04 0.2 True 2
9055.359999999999 0.148619 0.16097974725470604 -1.1794479379111849 2.315811455533854 -2.7071598446226717 -1.570796326589793 -1.4098165797452964 0.16097974725470604 -1.1794479379111849 2.315811455533854 -2.7071598446226717 -1.570796326589793 -1.4098165797452964 -0.4000000000932017 -0.20000000170960497 0.10000000331173936 -4.1418438413852464e-15 3.14159265358979 -6.00338724862593e-16 -0.4000000000932017 -0.20000000170960497 0.10000000331173936 -4.1418438413852464e-15 3.14159265358979 -6.00338724862593e-16 1.0 0.04 0.2 True 2
9055.46 0.16841 0.16097974701981885 -1.1965523527257753 2.313876807332349 -2.688120781606575 -1.570796326589793 -1.409816579980184 0.16097974701981885 -1.1965523527257753 2.313876807332349 -2.688120781606575 -1.570796326589793 -1.409816579980184 -0.40000000008768277 -0.20000000160835613 0.10592236615720706 -4.92661425343719e-15 3.1415926535897913 -2.676336372052774e-16 -0.40000000008768277 -0.20000000160835613 0.10592236615720706 -4.92661425343719e-15 3.1415926535897913 -2.676336372052774e-16 1.0 0.04 0.2 True 2
9055.56 0.24069300000000002 0.16097974630900902 -1.2471095805605827 2.3063128599435294 -2.629999606382947 -1.570796326589793 -1.4098165806909932 0.16097974630900902 -1.2471095805605827 2.3063128599435294 -2.629999606382947 -1.570796326589793 -1.4098165806909932 -0.40000000007098274 -0.2000000013019594 0.1238444762175524 -3.8802537040346015e-15 3.1415926535897922 -4.695826800959086e-17 -0.40000000007098274 -0.2000000013019594 0.1238444762175524 -3.8802537040346015e-15 3.1415926535897922 -4.695826800959086e-17 1.0 0.04 0.2 True 2
9055.66 0.240808 0.16097974531939774 -1.3140785965780752 2.2915880399888193 -2.5483057704107432 -1.570796326589793 -1.4098165816805999 0.16097974531939774 -1.3140785965780752 2.2915880399888193 -2.5483057704107432 -1.570796326589793 -1.4098165816805999 -0.400000000047576 -0.20000000087535916 0.14879618445418086 3.3788726074458616e-15 3.1415926535897927 3.12856298576467e-16 -0.400000000047576 -0.20000000087535916 0.14879618445418086 3.3788726074458616e-15 3.1415926535897927 3.12856298576467e-16 1.0 0.04 0.2 True 2
9055.76 0.233126 0.16097974432787282 -1.3766241954096508 2.27211003052744 -2.4662821621177877 -1.570796326589793 -1.4098165826721294 0.16097974432787282 -1.3766241954096508 2.27211003052744 -2.4662821621177877 -1.570796326589793 -1.4098165826721294 -0.40000000002433256 -0.20000000044796784 0.173796137579768 -3.858454525922048e-15 3.141592653589792 4.837278908652565e-16 -0.40000000002433256 -0.20000000044796784 0.173796137579768 -3.858454525922048e-15 3.141592653589792 4.837278908652565e-16 1.0 0.04 0.2 True 2
9055.859999999999 0.189433 0.16097974357123507 -1.4209874964490163 2.254202300469599 -2.40401113102058 -1.570796326589793 -1.4098165834287668 0.16097974357123507 -1.4209874964490163 2.254202300469599 -2.40401113102058 -1.570796326589793 -1.4098165834287668 -0.40000000000652475 -0.20000000012181182 0.19287374062816423 -3.313475073108198e-15 3.141592653589791 7.292707318346721e-16 -0.40000000000652475 -0.20000000012181182 0.19287374062816423 -3.313475073108198e-15 3.141592653589791 7.292707318346721e-16 1.0 0.04 0.2 True 2
9055.96 0.124185 0.16097974329051928 -1.4366693315720438 2.246912681600857 -2.381039677028811 -1.570796326589793 -1.4098165837094818 0.16097974329051928 -1.4366693315720438 2.246912681600857 -2.381039677028811 -1.570796326589793 -1.4098165837094818 -0.39999999999997443 -0.20000000000081575 0.19995161350764326 -2.04912274258007e-15 3.1415926535897913 6.436914226141955e-16 -0.39999999999997443 -0.20000000000081575 0.19995161350764326 -2.04912274258007e-15 3.1415926535897913 6.436914226141955e-16 1.0 0.04 0.2 True 2
9056.06 0.14982900000000002 0.16097974328859935 -1.4367751127901585 2.246861644871886 -2.3808828590817255 -1.570796326589793 -1.409816583711402 0.16097974328859935 -1.4367751127901585 2.246861644871886 -2.3808828590817255 -1.570796326589793 -1.409816583711402 -0.39999999999993235 -0.1999999999999887 0.20000002259993685 -2.5941021953939186e-15 3.1415926535897913 6.048387659863331e-16 -0.39999999999993235 -0.1999999999999887 0.20000002259993685 -2.5941021953939186e-15 3.1415926535897913 6.048387659863331e-16 1.0 0.04 0.2 True 2
9056.16 0.143597 0.16097974328859935 -1.4367751127901585 2.246861644871886 -2.3808828590817255 -1.570796326589793 -1.409816583711402 0.16097974328859935 -1.4367751127901585 2.246861644871886 -2.3808828590817255 -1.570796326589793 -1.409816583711402 -0.39999999999993235 -0.1999999999999887 0.20000002259993685 -2.5941021953939186e-15 3.1415926535897913 6.048387659863331e-16 -0.39999999999993235 -0.1999999999999887 0.20000002259993685 -2.5941021953939186e-15 3.1415926535897913 6.048387659863331e-16 1.0 0.04 0.2 True 2
9056.26 0.11338899999999999 0.16097974328859935 -1.4367751127901585 2.246861644871886 -2.3808828590817255 -1.570796326589793 -1.409816583711402 0.16097974328859935 -1.4367751127901585 2.246861644871886 -2.3808828590817255 -1.570796326589793 -1.409816583711402 -0.39999999999993235 -0.1999999999999887 0.20000002259993685 -2.5941021953939186e-15 3.1415926535897913 6.048387659863331e-16 -0.39999999999993235 -0.1999999999999887 0.20000002259993685 -2.5941021953939186e-15 3.1415926535897913 6.048387659863331e-16 1.0 0.04 0.2 True 2
9056.359999999999 0.145135 0.16097974328859935 -1.4367751127901585 2.246861644871886 -2.3808828590817255 -1.570796326589793 -1.409816583711402 0.16097974328859935 -1.4367751127901585 2.246861644871886 -2.3808828590817255 -1.570796326589793 -1.409816583711402 -0.39999999999993235 -0.1999999999999887 0.20000002259993685 -2.5941021953939186e-15 3.1415926535897913 6.048387659863331e-16 -0.39999999999993235 -0.1999999999999887 0.20000002259993685 -2.5941021953939186e-15 3.1415926535897913 6.048387659863331e-16 1.0 0.04 0.2 True 2
9056.46 0.185281 0.16097974328859935 -1.4367751127901585 2.246861644871886 -2.3808828590817255 -1.570796326589793 -1.409816583711402 0.16097974328859935 -1.4367751127901585 2.246861644871886 -2.3808828590817255 -1.570796326589793 -1.409816583711402 -0.39999999999993235 -0.1999999999999887 0.20000002259993685 -2.5941021953939186e-15 3.1415926535897913 6.048387659863331e-16 -0.39999999999993235 -0.1999999999999887 0.20000002259993685 -2.5941021953939186e-15 3.1415926535897913 6.048387659863331e-16 1.0 0.04 0.2 True 2
9056.56 0.180425 0.16097974328859935 -1.4367751127901585 2.246861644871886 -2.3808828590817255 -1.570796326589793 -1.409816583711402 0.16097974328859935 -1.4367751127901585 2.246861644871886 -2.3808828590817255 -1.570796326589793 -1.409816583711402 -0.39999999999993235 -0.1999999999999887 0.20000002259993685 -2.5941021953939186e-15 3.1415926535897913 6.048387659863331e-16 -0.39999999999993235 -0.1999999999999887 0.20000002259993685 -2.5941021953939186e-15 3.1415926535897913 6.048387659863331e-16 1.0 0.04 0.2 True 2
9056.66 0.13761600000000002 0.16097974328859935 -1.4367751127901585 2.246861644871886 -2.3808828590817255 -1.570796326589793 -1.409816583711402 0.16097974328859935 -1.4367751127901585 2.246861644871886 -2.3808828590817255 -1.570796326589793 -1.409816583711402 -0.39999999999993235 -0.1999999999999887 0.20000002259993685 -2.5941021953939186e-15 3.1415926535897913 6.048387659863331e-16 -0.39999999999993235 -0.1999999999999887 0.20000002259993685 -2.5941021953939186e-15 3.1415926535897913 6.048387659863331e-16 1.0 0.04 0.2 True 2
9056.76 0.082908 0.16097974328859935 -1.4367751127901585 2.246861644871886 -2.3808828590817255 -1.570796326589793 -1.409816583711402 0.16097974328859935 -1.4367751127901585 2.246861644871886 -2.3808828590817255 -1.570796326589793 -1.409816583711402 -0.39999999999993235 -0.1999999999999887 0.20000002259993685 -2.5941021953939186e-15 3.1415926535897913 6.048387659863331e-16 -0.39999999999993235 -0.1999999999999887 0.20000002259993685 -2.5941021953939186e-15 3.1415926535897913 6.048387659863331e-16 1.0 0.04 0.2 True 2
9056.859999999999 0.09994199999999999 0.16097974328859935 -1.4367751127901585 2.246861644871886 -2.3808828590817255 -1.570796326589793 -1.409816583711402 0.16097974328859935 -1.4367751127901585 2.246861644871886 -2.3808828590817255 -1.570796326589793 -1.409816583711402 -0.39999999999993235 -0.1999999999999887 0.20000002259993685 -2.5941021953939186e-15 3.1415926535897913 6.048387659863331e-16 -0.39999999999993235 -0.1999999999999887 0.20000002259993685 -2.5941021953939186e-15 3.1415926535897913 6.048387659863331e-16 1.0 0.04 0.2 True 2
9056.96 0.10066599999999999 0.16097974328859935 -1.4367751127901585 2.246861644871886 -2.3808828590817255 -1.570796326589793 -1.409816583711402 0.16097974328859935 -1.4367751127901585 2.246861644871886 -2.3808828590817255 -1.570796326589793 -1.409816583711402 -0.39999999999993235 -0.1999999999999887 0.20000002259993685 -2.5941021953939186e-15 3.1415926535897913 6.048387659863331e-16 -0.39999999999993235 -0.1999999999999887 0.20000002259993685 -2.5941021953939186e-15 3.1415926535897913 6.048387659863331e-16 1.0 0.04 0.2 True 2
9057.06 0.11264199999999999 0.16676320800396058 -1.4398340468872508 2.2497376915497242 -2.380699971662471 -1.570796326589793 -1.4040331189960407 0.16676320800396058 -1.4398340468872508 2.2497376915497242 -2.380699971662471 -1.570796326589793 -1.4040331189960407 -0.3976170794538424 -0.2021047465240229 0.20022122144347668 -2.245315345593055e-15 3.141592653589791 7.617098505262188e-16 -0.3976170794538424 -0.2021047465240229 0.20022122144347668 -2.245315345593055e-15 3.141592653589791 7.617098505262188e-16 1.0 0.04 0.2 True 2
9057.16 0.16056600000000001 0.18645297898280122 -1.4502481696969136 2.2595291752360818 -2.3800773325391664 -1.570796326589793 -1.3843433480172003 0.18645297898280122 -1.4502481696969136 2.2595291752360818 -2.3800773325391664 -1.570796326589793 -1.3843433480172003 -0.3894196790306413 -0.2091128436514859 0.20094479290033818 -2.7030980859566883e-15 3.141592653589792 5.332047231623447e-16 -0.3894196790306413 -0.2091128436514859 0.20094479290033818 -2.7030980859566883e-15 3.141592653589792 5.332047231623447e-16 1.0 0.04 0.2 True 2
9057.26 0.14618 0.2201053839775965 -1.46804727354799 2.2762641070373375 -2.379013160489346 -1.570796326589793 -1.3506909430224052 0.2201053839775965 -1.46804727354799 2.2762641070373375 -2.379013160489346 -1.570796326589793 -1.3506909430224052 -0.37512196306185563 -0.22052150670493312 0.2020757601017221 -2.9864874014198895e-15 3.141592653589792 6.282396808230717e-16 -0.37512196306185563 -0.22052150670493312 0.2020757601017221 -2.9864874014198895e-15 3.141592653589792 6.282396808230717e-16 1.0 0.04 0.2 True 2
9057.359999999999 0.16663499999999998 0.2677204229883464 -1.4932313584404797 2.2999424869534906 -2.377507455513009 -1.570796326589793 -1.3030759040116546 0.2677204229883464 -1.4932313584404797 2.2999424869534906 -2.377507455513009 -1.570796326589793 -1.3030759040116546 -0.35433236294708775 -0.23541934917045265 0.20344765770524045 -2.04912274258007e-15 3.141592653589792 7.055904268353511e-16 -0.35433236294708775 -0.23541934917045265 0.20344765770524045 -2.04912274258007e-15 3.141592653589792 7.055904268353511e-16 1.0 0.04 0.2 True 2
9057.46 0.14469300000000002 0.32929809601505095 -1.525800424374383 2.3305643149845423 -2.3755602176101567 -1.570796326589793 -1.2414982309849503 0.32929809601505095 -1.525800424374383 2.3305643149845423 -2.3755602176101567 -1.570796326589793 -1.2414982309849503 -0.32662171188349964 -0.2524889169240811 0.20482425169276294 -2.1363194550302856e-15 3.141592653589791 1.2844033018755082e-15 -0.32662171188349964 -0.2524889169240811 0.20482425169276294 -2.1363194550302856e-15 3.141592653589791 1.2844033018755082e-15 1.0 0.04 0.2 True 2
9057.56 0.25669600000000004 0.4048384030577101 -1.5657544713497016 2.3681295911304914 -2.373171446780788 -1.570796326589793 -1.1659579239422904 0.4048384030577101 -1.5657544713497016 2.3681295911304914 -2.373171446780788 -1.570796326589793 -1.1659579239422904 -0.2916532276152981 -0.269998573350274 0.20589933590314854 -9.591638369523732e-16 3.141592653589792 1.0642061386279696e-15 -0.2916532276152981 -0.269998573350274 0.20589933590314854 -9.591638369523732e-16 3.141592653589792 1.0642061386279696e-15 1.0 0.04 0.2 True 2
9057.66 0.133 0.49426928276605614 -1.613055385375553 2.4126024801580934 -2.3703434217825388 -1.570796326589793 -1.076527044233945 0.49426928276605614 -1.613055385375553 2.4126024801580934 -2.3703434217825388 -1.570796326589793 -1.076527044233945 -0.24938257366340116 -0.2858113980133014 0.20629729362145763 -1.918327673904747e-15 3.1415926535897922 1.0638391948433534e-15 -0.24938257366340116 -0.2858113980133014 0.20629729362145763 -1.918327673904747e-15 3.1415926535897922 1.0638391948433534e-15 1.0 0.04 0.2 True 2
9057.76 0.155358 0.581766067040683 -1.6593333363921339 2.456113567044499 -2.367576557652363 -1.570796326589793 -0.9890302599593177 0.581766067040683 -1.6593333363921339 2.456113567044499 -2.367576557652363 -1.570796326589793 -0.9890302599593177 -0.20770612774086925 -0.2961538134784225 0.20576953709885884 -1.4823441116536678e-15 3.141592653589792 1.6259348753945788e-15 -0.20770612774086925 -0.2961538134784225 0.20576953709885884 -1.4823441116536678e-15 3.141592653589792 1.6259348753945788e-15 1.0 0.04 0.2 True 2
9057.859999999999 0.271263 0.6553002172993556 -1.6982263063673013 2.492681205816007 -2.365251226448704 -1.570796326589793 -0.9154961097006451 0.6553002172993556 -1.6982263063673013 2.492681205816007 -2.365251226448704 -1.570796326589793 -0.9154961097006451 -0.17287500407488685 -0.3009964590398117 0.20462645548194527 -1.3079506867532366e-15 3.1415926535897922 1.4048627946936011e-15 -0.17287500407488685 -0.3009964590398117 0.20462645548194527 -1.3079506867532366e-15 3.1415926535897922 1.4048627946936011e-15 1.0 0.04 0.2 True 2
9057.96 0.15532400000000002 0.7148717335420733 -1.7297342953010553 2.522305396472617 -2.36336742817156 -1.570796326589793 -0.8559245934579272 0.7148717335420733 -1.7297342953010553 2.522305396472617 -2.36336742817156 -1.570796326589793 -0.8559245934579272 -0.14503724907120194 -0.30241228091519046 0.20323388971421943 -9.155654807272655e-16 3.1415926535897922 1.5117469832985001e-15 -0.14503724907120194 -0.30241228091519046 0.20323388971421943 -9.155654807272655e-16 3.1415926535897922 1.5117469832985001e-15 1.0 0.04 0.2 True 2
9058.06 0.096188 0.7604806157688361 -1.7538573031933948 2.544986139014329 -2.361925162820933 -1.570796326589793 -0.8103157112311639 0.7604806157688361 -1.7538573031933948 2.544986139014329 -2.361925162820933 -1.570796326589793 -0.8103157112311639 -0.12407085593430622 -0.3020246098702322 0.20188671978360187 -8.719671245021578e-17 3.1415926535897927 9.873955685921758e-16 -0.12407085593430622 -0.3020246098702322 0.20188671978360187 -8.719671245021578e-17 3.1415926535897927 9.873955685921758e-16 1.0 0.04 0.2 True 2
9058.16 0.10065600000000001 0.7921268639796447 -1.770595330044321 2.5607234334411433 -2.360924430396821 -1.570796326589793 -0.7786694630203552 0.7921268639796447 -1.770595330044321 2.5607234334411433 -2.360924430396821 -1.570796326589793 -0.7786694630203552 -0.10974348142094897 -0.3010264062122327 0.20080934435533135 -2.1799178112553946e-16 3.1415926535897927 1.0737348921323771e-15 -0.10974348142094897 -0.3010264062122327 0.20080934435533135 -2.1799178112553946e-16 3.1415926535897927 1.0737348921323771e-15 1.0 0.04 0.2 True 2
9058.26 0.09320300000000001 0.8098104781744988 -1.7799483758538326 2.569517279753059 -2.3603652308992253 -1.570796326589793 -0.7609858488255021 0.8098104781744988 -1.7799483758538326 2.569517279753059 -2.3603652308992253 -1.570796326589793 -0.7609858488255021 -0.1018265757475985 -0.30021412563627187 0.2001565896240651 -1.7439342490043157e-15 3.1415926535897927 1.1993766729065706e-15 -0.1018265757475985 -0.30021412563627187 0.2001565896240651 -1.7439342490043157e-15 3.1415926535897927 1.1993766729065706e-15 1.0 0.04 0.2 True 2
9058.359999999999 0.07441400000000001 0.8139121098918858 -1.7821177711439447 2.571556971331565 -2.360235527187619 -1.570796326589793 -0.756884217108114 0.8139121098918858 -1.7821177711439447 2.571556971331565 -2.360235527187619 -1.570796326589793 -0.756884217108114 -0.10000000000000013 -0.2999999999999999 0.19999999999999954 -8.719671245021578e-17 3.1415926535897927 1.2569679869323069e-15 -0.10000000000000013 -0.2999999999999999 0.19999999999999954 -8.719671245021578e-17 3.1415926535897927 1.2569679869323069e-15 1.0 0.12 0.08 False 2
9058.46 0.083396 0.8139121098918858 -1.7821177711439447 2.571556971331565 -2.360235527187619 -1.570796326589793 -0.756884217108114 0.8139121098918858 -1.7821177711439447 2.571556971331565 -2.360235527187619 -1.570796326589793 -0.756884217108114 -0.10000000000000013 -0.2999999999999999 0.19999999999999954 -8.719671245021578e-17 3.1415926535897927 1.2569679869323069e-15 -0.10000000000000013 -0.2999999999999999 0.19999999999999954 -8.719671245021578e-17 3.1415926535897927 1.2569679869323069e-15 1.0 0.12 0.08 False 2
9058.56 0.183479 0.8139121098918858 -1.7821177711439447 2.571556971331565 -2.360235527187619 -1.570796326589793 -0.756884217108114 0.8139121098918858 -1.7821177711439447 2.571556971331565 -2.360235527187619 -1.570796326589793 -0.756884217108114 -0.10000000000000013 -0.2999999999999999 0.19999999999999954 -8.719671245021578e-17 3.1415926535897927 1.2569679869323069e-15 -0.10000000000000013 -0.2999999999999999 0.19999999999999954 -8.719671245021578e-17 3.1415926535897927 1.2569679869323069e-15 1.0 0.12 0.08 False 2
9058.66 0.089976 0.8139121098918858 -1.7821177711439447 2.571556971331565 -2.360235527187619 -1.570796326589793 -0.756884217108114 0.8139121098918858 -1.7821177711439447 2.571556971331565 -2.360235527187619 -1.570796326589793 -0.756884217108114 -0.10000000000000013 -0.2999999999999999 0.19999999999999954 -8.719671245021578e-17 3.1415926535897927 1.2569679869323069e-15 -0.10000000000000013 -0.2999999999999999 0.19999999999999954 -8.719671245021578e-17 3.1415926535897927 1.2569679869323069e-15 1.0 0.12 0.08 False 2
9058.76 0.11269499999999999 0.8139121098918858 -1.7821177711439447 2.571556971331565 -2.360235527187619 -1.570796326589793 -0.756884217108114 0.8139121098918858 -1.7821177711439447 2.571556971331565 -2.360235527187619 -1.570796326589793 -0.756884217108114 -0.10000000000000013 -0.2999999999999999 0.19999999999999954 -8.719671245021578e-17 3.1415926535897927 1.2569679869323069e-15 -0.10000000000000013 -0.2999999999999999 0.19999999999999954 -8.719671245021578e-17 3.1415926535897927 1.2569679869323069e-15 1.0 0.12 0.08 False 2
9058.859999999999 0.111482 0.8139121098918858 -1.7821177711439447 2.571556971331565 -2.360235527187619 -1.570796326589793 -0.756884217108114 0.8139121098918858 -1.7821177711439447 2.571556971331565 -2.360235527187619 -1.570796326589793 -0.756884217108114 -0.10000000000000013 -0.2999999999999999 0.19999999999999954 -8.719671245021578e-17 3.1415926535897927 1.2569679869323069e-15 -0.10000000000000013 -0.2999999999999999 0.19999999999999954 -8.719671245021578e-17 3.1415926535897927 1.2569679869323069e-15 1.0 0.12 0.08 False 2
9058.96 0.11204800000000001 0.8139121098918858 -1.7821177711439447 2.571556971331565 -2.360235527187619 -1.570796326589793 -0.756884217108114 0.8139121098918858 -1.7821177711439447 2.571556971331565 -2.360235527187619 -1.570796326589793 -0.756884217108114 -0.10000000000000013 -0.2999999999999999 0.19999999999999954 -8.719671245021578e-17 3.1415926535897927 1.2569679869323069e-15 -0.10000000000000013 -0.2999999999999999 0.19999999999999954 -8.719671245021578e-17 3.1415926535897927 1.2569679869323069e-15 1.0 0.12 0.08 False 2
9059.06 0.08641299999999999 0.8139121098918858 -1.7821177711439447 2.571556971331565 -2.360235527187619 -1.570796326589793 -0.756884217108114 0.8139121098918858 -1.7821177711439447 2.571556971331565 -2.360235527187619 -1.570796326589793 -0.756884217108114 -0.10000000000000013 -0.2999999999999999 0.19999999999999954 -8.719671245021578e-17 3.1415926535897927 1.2569679869323069e-15 -0.10000000000000013 -0.2999999999999999 0.19999999999999954 -8.719671245021578e-17 3.1415926535897927 1.2569679869323069e-15 1.0 0.12 0.08 False 2
9059.16 0.14427600000000002 0.8139121098918858 -1.7821177711439447 2.571556971331565 -2.360235527187619 -1.570796326589793 -0.756884217108114 0.8139121098918858 -1.7821177711439447 2.571556971331565 -2.360235527187619 -1.570796326589793 -0.756884217108114 -0.10000000000000013 -0.2999999999999999 0.19999999999999954 -8.719671245021578e-17 3.1415926535897927 1.2569679869323069e-15 -0.10000000000000013 -0.2999999999999999 0.19999999999999954 -8.719671245021578e-17 3.1415926535897927 1.2569679869323069e-15 1.0 0.12 0.08 False 2
9059.26 0.106803 0.8139121098918858 -1.7821177711439447 2.571556971331565 -2.360235527187619 -1.570796326589793 -0.756884217108114 0.8139121098918858 -1.7821177711439447 2.571556971331565 -2.360235527187619 -1.570796326589793 -0.756884217108114 -0.10000000000000013 -0.2999999999999999 0.19999999999999954 -8.719671245021578e-17 3.1415926535897927 1.2569679869323069e-15 -0.10000000000000013 -0.2999999999999999 0.19999999999999954 -8.719671245021578e-17 3.1415926535897927 1.2569679869323069e-15 1.0 0.12 0.08 False 2
9059.359999999999 0.197552 0.8139121098918858 -1.7821177711439447 2.571556971331565 -2.360235527187619 -1.570796326589793 -0.756884217108114 0.8139121098918858 -1.7821177711439447 2.571556971331565 -2.360235527187619 -1.570796326589793 -0.756884217108114 -0.10000000000000013 -0.2999999999999999 0.19999999999999954 -8.719671245021578e-17 3.1415926535897927 1.2569679869323069e-15 -0.10000000000000013 -0.2999999999999999 0.19999999999999954 -8.719671245021578e-17 3.1415926535897927 1.2569679869323069e-15 1.0 0.12 0.08 True 2
9059.46 0.14187899999999998 0.8139121098918858 -1.7821177711439447 2.571556971331565 -2.360235527187619 -1.570796326589793 -0.756884217108114 0.8139121098918858 -1.7821177711439447 2.571556971331565 -2.360235527187619 -1.570796326589793 -0.756884217108114 -0.10000000000000013 -0.2999999999999999 0.19999999999999954 -8.719671245021578e-17 3.1415926535897927 1.2569679869323069e-15 -0.10000000000000013 -0.2999999999999999 0.19999999999999954 -8.719671245021578e-17 3.1415926535897927 1.2569679869323069e-15 1.0 0.12 0.08 True 2
9059.56 0.250702 0.8139121098918858 -1.7821177711439447 2.571556971331565 -2.360235527187619 -1.570796326589793 -0.756884217108114 0.8139121098918858 -1.7821177711439447 2.571556971331565 -2.360235527187619 -1.570796326589793 -0.756884217108114 -0.10000000000000013 -0.2999999999999999 0.19999999999999954 -8.719671245021578e-17 3.1415926535897927 1.2569679869323069e-15 -0.10000000000000013 -0.2999999999999999 0.19999999999999954 -8.719671245021578e-17 3.1415926535897927 1.2569679869323069e-15 1.0 0.12 0.08 True 2
9059.66 0.08946299999999999 0.8139121098918858 -1.7821177711439447 2.571556971331565 -2.360235527187619 -1.570796326589793 -0.756884217108114 0.8139121098918858 -1.7821177711439447 2.571556971331565 -2.360235527187619 -1.570796326589793 -0.756884217108114 -0.10000000000000013 -0.2999999999999999 0.19999999999999954 -8.719671245021578e-17 3.1415926535897927 1.2569679869323069e-15 -0.10000000000000013 -0.2999999999999999 0.19999999999999954 -8.719671245021578e-17 3.1415926535897927 1.2569679869323069e-15 1.0 0.12 0.08 True 2
9059.76 0.101637 0.8139121098918858 -1.7821177711439447 2.571556971331565 -2.360235527187619 -1.570796326589793 -0.756884217108114 0.8139121098918858 -1.7821177711439447 2.571556971331565 -2.360235527187619 -1.570796326589793 -0.756884217108114 -0.10000000000000013 -0.2999999999999999 0.19999999999999954 -8.719671245021578e-17 3.1415926535897927 1.2569679869323069e-15 -0.10000000000000013 -0.2999999999999999 0.19999999999999954 -8.719671245021578e-17 3.1415926535897927 1.2569679869323069e-15 1.0 0.12 0.08 True 2
9059.859999999999 0.080879 0.8139121098918858 -1.7821177711439447 2.571556971331565 -2.360235527187619 -1.570796326589793 -0.756884217108114 0.8139121098918858 -1.7821177711439447 2.571556971331565 -2.360235527187619 -1.570796326589793 -0.756884217108114 -0.10000000000000013 -0.2999999999999999 0.19999999999999954 -8.719671245021578e-17 3.1415926535897927 1.2569679869323069e-15 -0.10000000000000013 -0.2999999999999999 0.19999999999999954 -8.719671245021578e-17 3.1415926535897927 1.2569679869323069e-15 1.0 0.12 0.08 True 2
9059.96 0.104953 0.8139121098918858 -1.7821177711439447 2.571556971331565 -2.360235527187619 -1.570796326589793 -0.756884217108114 0.8139121098918858 -1.7821177711439447 2.571556971331565 -2.360235527187619 -1.570796326589793 -0.756884217108114 -0.10000000000000013 -0.2999999999999999 0.19999999999999954 -8.719671245021578e-17 3.1415926535897927 1.2569679869323069e-15 -0.10000000000000013 -0.2999999999999999 0.19999999999999954 -8.719671245021578e-17 3.1415926535897927 1.2569679869323069e-15 1.0 0.12 0.08 True 2
9060.06 0.094095 0.8139121098918858 -1.7821177711439447 2.571556971331565 -2.360235527187619 -1.570796326589793 -0.756884217108114 0.8139121098918858 -1.7821177711439447 2.571556971331565 -2.360235527187619 -1.570796326589793 -0.756884217108114 -0.10000000000000013 -0.2999999999999999 0.19999999999999954 -8.719671245021578e-17 3.1415926535897927 1.2569679869323069e-15 -0.10000000000000013 -0.2999999999999999 0.19999999999999954 -8.719671245021578e-17 3.1415926535897927 1.2569679869323069e-15 1.0 0.12 0.08 True 2
9060.16 0.11583199999999999 0.8139121098918858 -1.7821177711439447 2.571556971331565 -2.360235527187619 -1.570796326589793 -0.756884217108114 0.8139121098918858 -1.7821177711439447 2.571556971331565 -2.360235527187619 -1.570796326589793 -0.756884217108114 -0.10000000000000013 -0.2999999999999999 0.19999999999999954 -8.719671245021578e-17 3.1415926535897927 1.2569679869323069e-15 -0.10000000000000013 -0.2999999999999999 0.19999999999999954 -8.719671245021578e-17 3.1415926535897927 1.2569679869323069e-15 1.0 0.12 0.08 True 2
9060.26 0.17832499999999998 0.8139121098918858 -1.7821177711439447 2.571556971331565 -2.360235527187619 -1.570796326589793 -0.756884217108114 0.8139121098918858 -1.7821177711439447 2.571556971331565 -2.360235527187619 -1.570796326589793 -0.756884217108114 -0.10000000000000013 -0.2999999999999999 0.19999999999999954 -8.719671245021578e-17 3.1415926535897927 1.2569679869323069e-15 -0.10000000000000013 -0.2999999999999999 0.19999999999999954 -8.719671245021578e-17 3.1415926535897927 1.2569679869323069e-15 1.0 0.12 0.08 True 2
9060.359999999999 0.085842 0.8139121098918858 -1.7821177711439447 2.571556971331565 -2.360235527187619 -1.570796326589793 -0.756884217108114 0.8139121098918858 -1.7821177711439447 2.571556971331565 -2.360235527187619 -1.570796326589793 -0.756884217108114 -0.10000000000000013 -0.2999999999999999 0.19999999999999954 -8.719671245021578e-17 3.1415926535897927 1.2569679869323069e-15 -0.10000000000000013 -0.2999999999999999 0.19999999999999954 -8.719671245021578e-17 3.1415926535897927 1.2569679869323069e-15 1.0 0.12 0.08 True 2
9060.46 0.09299800000000001 0.8162606249333694 -1.782029281537798 2.571496125279208 -2.360263170741409 -1.570796326589793 -0.7545357020666303 0.8162606249333694 -1.782029281537798 2.571496125279208 -2.360263170741409 -1.570796326589793 -0.7545357020666303 -0.09931508494462804 -0.30025520733263805 0.20000025158568716 2.1799178112553946e-16 3.1415926535897927 1.0398005815078174e-15 -0.09931508494462804 -0.30025520733263805 0.20000025158568716 2.1799178112553946e-16 3.1415926535897927 1.0398005815078174e-15 1.0 0.12 0.08 True 2
9060.56 0.130016 0.8313402696706004 -1.7814610961951178 2.5711054371903517 -2.3604406679952317 -1.570796326589793 -0.7394560573293996 0.8313402696706004 -1.7814610961951178 2.5711054371903517 -2.3604406679952317 -1.570796326589793 -0.7394560573293996 -0.09490203535403484 -0.30185658720362724 0.20000179454200476 -1.3079506867532364e-16 3.1415926535897922 2.0033006733405324e-15 -0.09490203535403484 -0.30185658720362724 0.20000179454200476 -1.3079506867532364e-16 3.1415926535897922 2.0033006733405324e-15 1.0 0.12 0.08 True 2
9060.66 0.13575399999999999 0.860382548423786 -1.780366813312921 2.570353000871072 -2.36078251455815 -1.570796326589793 -0.7104137785762141 0.860382548423786 -1.780366813312921 2.570353000871072 -2.36078251455815 -1.570796326589793 -0.7104137785762141 -0.08633117015029058 -0.304757704414536 0.20000441283513568 -5.667786309264028e-16 3.1415926535897927 1.0816036998881872e-15 -0.08633117015029058 -0.304757704414536 0.20000441283513568 -5.667786309264028e-16 3.1415926535897927 1.0816036998881872e-15 1.0 0.12 0.08 True 2
9060.76 0.103874 0.9033874611929265 -1.7787464328912055 2.56923881632137 -2.361288710430163 -1.570796326589793 -0.6674088658070731 0.9033874611929265 -1.7787464328912055 2.56923881632137 -2.361288710430163 -1.570796326589793 -0.6674088658070731 -0.07347899717513756 -0.30860581333141524 0.20000743539925764 3.0518849357575523e-16 3.1415926535897927 1.296478546675491e-15 -0.07347899717513756 -0.30860581333141524 0.20000743539925764 3.0518849357575523e-16 3.1415926535897927 1.296478546675491e-15 1.0 0.12 0.08 True 2
9060.859999999999 0.157602 0.9603550079780214 -1.7765999549299725 2.567762883541245 -2.3619592556112714 -1.570796326589793 -0.6104413190219784 0.9603550079780214 -1.7765999549299725 2.567762883541245 -2.3619592556112714 -1.570796326589793 -0.6104413190219784 -0.05619339450995504 -0.31286720053650136 0.20000986808090024 4.359835622510789e-17 3.1415926535897927 1.111855434006725e-15 -0.05619339450995504 -0.31286720053650136 0.20000986808090024 4.359835622510789e-17 3.1415926535897927 1.111855434006725e-15 1.0 0.12 0.08 True 2
9060.96 0.159768 1.0301000823151123 -1.7739720330092013 2.5659559066346445 -2.3627802006254424 -1.570796326589793 -0.540696244684888 1.0301000823151123 -1.7739720330092013 2.5659559066346445 -2.3627802006254424 -1.570796326589793 -0.540696244684888 -0.034698516653361156 -0.31676379335957777 0.20001040716275703 -6.975736996017264e-16 3.141592653589793 7.046095126530265e-16 -0.034698516653361156 -0.31676379335957777 0.20001040716275703 -6.975736996017264e-16 3.141592653589793 7.046095126530265e-16 1.0 0.12 0.08 True 2
9061.06 0.134439 1.0928946112489304 -1.7716060004161012 2.564329006603026 -2.3635193331869235 -1.570796326589793 -0.4779017157510692 1.0928946112489304 -1.7716060004161012 2.564329006603026 -2.3635193331869235 -1.570796326589793 -0.4779017157510692 -0.015110309951602164 -0.31900839081365223 0.2000085942826859 2.6159013735064733e-16 3.1415926535897927 1.30328938217926e-15 -0.015110309951602164 -0.31900839081365223 0.2000085942826859 2.6159013735064733e-16 3.1415926535897927 1.30328938217926e-15 1.0 0.12 0.08 True 2
9061.16 0.2005 1.1417265061667936 -1.7697660653625196 2.5630638548018303 -2.364094116439309 -1.570796326589793 -0.429069820833206 1.1417265061667936 -1.7697660653625196 2.5630638548018303 -2.364094116439309 -1.570796326589793 -0.429069820833206 0.0002272721569540794 -0.3199165690703576 0.20000567861188553 2.6159013735064733e-16 3.1415926535897927 2.0978285465670934e-15 0.0002272721569540794 -0.3199165690703576 0.20000567861188553 2.6159013735064733e-16 3.1415926535897927 2.0978285465670934e-15 1.0 0.12 0.08 True 2
9061.26 0.129796 1.1765957670687024 -1.7684522278484556 2.5621604512310565 -2.364504550382599 -1.570796326589793 -0.39420055993129743 1.1765957670687024 -1.7684522278484556 2.5621604512310565 -2.364504550382599 -1.570796326589793 -0.39420055993129743 0.011213943221239206 -0.320113685462853 0.2000027900348377 -1.7439342490043156e-16 3.1415926535897927 1.8135833109528193e-15 0.011213943221239206 -0.320113685462853 0.2000027900348377 -1.7439342490043156e-16 3.1415926535897927 1.8135833109528193e-15 1.0 0.12 0.08 True 2
9061.359999999999 0.10495099999999999 1.1975023939546565 -1.76766448787391 2.5616187958907064 -2.364750635016794 -1.570796326589793 -0.37329393304534353 1.1975023939546565 -1.76766448787391 2.5616187958907064 -2.364750635016794 -1.570796326589793 -0.37329393304534353 0.017808874912128642 -0.3200509084393474 0.20000073578061586 -4.359835622510789e-16 3.1415926535897927 2.5295718266209927e-15 0.017808874912128642 -0.3200509084393474 0.20000073578061586 -4.359835622510789e-16 3.1415926535897927 2.5295718266209927e-15 1.0 0.12 0.08 True 2
9061.46 0.135043 1.2044464367110628 -1.7674027123059917 2.5614389518215663 -2.364832566515573 -1.570796326589793 -0.3663498902889373 1.2044464367110628 -1.7674027123059917 2.5614389518215663 -2.364832566515573 -1.570796326589793 -0.3663498902889373 0.020000000000000122 -0.31999999999999995 0.19999995712579152 -3.4878684980086313e-16 3.1415926535897927 1.939450822588514e-15 0.020000000000000122 -0.31999999999999995 0.19999995712579152 -3.4878684980086313e-16 3.1415926535897927 1.939450822588514e-15 1.0 0.12 0.08 True 2
9061.56 0.220548 1.2044464367153056 -1.7485576512521908 2.570351761005262 -2.3925904367530713 -1.570796326589793 -0.36634989028469445 1.2044464367153056 -1.7485576512521908 2.570351761005262 -2.3925904367530713 -1.570796326589793 -0.36634989028469445 0.019999999999996868 -0.3200000000000084 0.19396787939208712 -3.92385206025971e-16 3.1415926535897927 -6.27467532696159e-16 0.019999999999996868 -0.3200000000000084 0.19396787939208712 -3.92385206025971e-16 3.1415926535897927 -6.27467532696159e-16 1.0 0.12 0.08 True 2
9061.66 0.156527 1.2044464367279888 -1.6876537096759847 2.5952574576048013 -2.478400074928817 -1.570796326589793 -0.36634989027201215 1.2044464367279888 -1.6876537096759847 2.5952574576048013 -2.478400074928817 -1.570796326589793 -0.36634989027201215 0.019999999999992878 -0.3200000000000188 0.1759358016584118 -1.7875326052294236e-15 3.1415926535897927 -1.176884682073748e-15 0.019999999999992878 -0.3200000000000188 0.1759358016584118 -1.7875326052294236e-15 3.1415926535897927 -1.176884682073748e-15 1.0 0.12 0.08 True 2
9061.76 0.12893700000000002 1.2044464367455472 -1.5920066192199016 2.6249701158157834 -2.603759823595882 -1.570796326589793 -0.3663498902544564 1.2044464367455472 -1.5920066192199016 2.6249701158157834 -2.603759823595882 -1.570796326589793 -0.3663498902544564 0.019999999999994095 -0.320000000000017 0.15097485320539386 -5.885778090389565e-15 3.1415926535897927 -5.431576672922078e-16 0.019999999999994095 -0.320000000000017 0.15097485320539386 -5.885778090389565e-15 3.1415926535897927 -5.431576672922078e-16 1.0 0.12 0.08 True 2
9061.859999999999 0.260175 1.204446436763133 -1.4836413268409991 2.6484032627226224 -2.735558262881624 -1.570796326589793 -0.36634989023687314 1.204446436763133 -1.4836413268409991 2.6484032627226224 -2.735558262881624 -1.570796326589793 -0.36634989023687314 0.020000000000004913 -0.31999999999998996 0.12597495413897974 -9.766031794424167e-15 3.1415926535897927 -1.8920111611673334e-15 0.020000000000004913 -0.31999999999998996 0.12597495413897974 -9.766031794424167e-15 3.1415926535897927 -1.8920111611673334e-15 1.0 0.12 0.08 True 2
9061.96 0.290262 1.2044464367764731 -1.394125128346909 2.6614428987506855 -2.8381140974037757 -1.570796326589793 -0.3663498902235336 1.2044464367764731 -1.394125128346909 2.6614428987506855 -2.8381140974037757 -1.570796326589793 -0.3663498902235336 0.020000000000004403 -0.3199999999999901 0.10700700298346955 -1.0725195631376543e-14 3.141592653589793 5.906072810756628e-16 0.020000000000004403 -0.3199999999999901 0.10700700298346955 -1.0725195631376543e-14 3.141592653589793 5.906072810756628e-16 1.0 0.12 0.08 True 2
9062.06 0.148341 1.2044464367813734 -1.3599353798525051 2.6651323604211563 -2.8759933075686517 -1.570796326589793 -0.3663498902186326 1.2044464367813734 -1.3599353798525051 2.6651323604211563 -2.8759933075686517 -1.570796326589793 -0.3663498902186326 0.020000000000003057 -0.3199999999999932 0.10003906318793507 -9.809630150649275e-15 3.1415926535897927 -1.3018823606577216e-15 0.020000000000003057 -0.3199999999999932 0.10003906318793507 -9.809630150649275e-15 3.1415926535897927 -1.3018823606577216e-15 1.0 0.12 0.08 True 2
9062.16 0.139601 1.2044464367814007 -1.3597421195396278 2.6651513155602085 -2.8762055230205803 -1.570796326589793 -0.3663498902186051 1.2044464367814007 -1.3597421195396278 2.6651513155602085 -2.8762055230205803 -1.570796326589793 -0.3663498902186051 0.02000000000000294 -0.31999999999999335 0.10000002572557934 -9.460843300848418e-15 3.141592653589793 4.408165811026391e-17 0.02000000000000294 -0.31999999999999335 0.10000002572557934 -9.460843300848418e-15 3.141592653589793 4.408165811026391e-17 1.0 0.12 0.08 True 2
9062.26 0.069896 1.2044464367814007 -1.3597421195396278 2.6651513155602085 -2.8762055230205803 -1.570796326589793 -0.3663498902186051 1.2044464367814007 -1.3597421195396278 2.6651513155602085 -2.8762055230205803 -1.570796326589793 -0.3663498902186051 0.02000000000000294 -0.31999999999999335 0.10000002572557934 -9.460843300848418e-15 3.141592653589793 4.408165811026391e-17 0.02000000000000294 -0.31999999999999335 0.10000002572557934 -9.460843300848418e-15 3.141592653589793 4.408165811026391e-17 1.0 0.12 0.08 True 2
9062.359999999999 0.13421100000000002 1.2044464367814007 -1.3597421195396278 2.6651513155602085 -2.8762055230205803 -1.570796326589793 -0.3663498902186051 1.2044464367814007 -1.3597421195396278 2.6651513155602085 -2.8762055230205803 -1.570796326589793 -0.3663498902186051 0.02000000000000294 -0.31999999999999335 0.10000002572557934 -9.460843300848418e-15 3.141592653589793 4.408165811026391e-17 0.02000000000000294 -0.31999999999999335 0.10000002572557934 -9.460843300848418e-15 3.141592653589793 4.408165811026391e-17 1.0 0.12 0.08 True 2
9062.46 0.265104 1.2044464367778338 -1.384689384664517 2.6625286809333324 -2.848635623268814 -1.570796326589793 -0.366349890222172 1.2044464367778338 -1.384689384664517 2.6625286809333324 -2.848635623268814 -1.570796326589793 -0.366349890222172 0.020000000000002408 -0.3199999999999947 0.10507113985565647 -9.417244944623305e-15 3.141592653589793 1.221437784752484e-15 0.020000000000002408 -0.3199999999999947 0.10507113985565647 -9.417244944623305e-15 3.141592653589793 1.221437784752484e-15 1.0 0.12 0.08 True 2
9062.56 0.255518 1.2044464367658536 -1.4658354366719069 2.651411299125908 -2.7563721894539985 -1.570796326589793 -0.3663498902341509 1.2044464367658536 -1.4658354366719069 2.651411299125908 -2.7563721894539985 -1.570796326589793 -0.3663498902341509 0.020000000000000302 -0.31999999999999995 0.1221032175893243 -7.368122202043233e-15 3.1415926535897927 3.2011226656919353e-15 0.020000000000000302 -0.31999999999999995 0.1221032175893243 -7.368122202043233e-15 3.1415926535897927 3.2011226656919353e-15 1.0 0.12 0.08 True 2
9062.66 0.233839 1.2044464367483816 -1.5753430731071933 2.629201388885241 -2.624654642778045 -1.570796326589793 -0.36634989025161957 1.2044464367483816 -1.5753430731071933 2.629201388885241 -2.624654642778045 -1.570796326589793 -0.36634989025161957 0.020000000000018364 -0.3199999999999519 0.14694181187463554 -2.1363194550302864e-15 3.1415926535897922 3.4133245301430063e-15 0.020000000000018364 -0.3199999999999519 0.14694181187463554 -2.1363194550302864e-15 3.1415926535897922 3.4133245301430063e-15 1.0 0.12 0.08 True 2
9062.76 0.272991 1.2044464367307957 -1.6732307083005846 2.6004001497331175 -2.4979657684325303 -1.570796326589793 -0.36634989026920195 1.2044464367307957 -1.6732307083005846 2.6004001497331175 -2.4979657684325303 -1.570796326589793 -0.36634989026920195 0.02000000000001271 -0.31999999999996515 0.17194182866906063 3.531466854233739e-15 3.1415926535897927 3.244713726246662e-15 0.02000000000001271 -0.31999999999996515 0.17194182866906063 3.531466854233739e-15 3.1415926535897927 3.244713726246662e-15 1.0 0.12 0.08 True 2
9062.859999999999 0.175533 1.2044464367167789 -1.74182745124706 2.5733845092692422 -2.402353385022183 -1.570796326589793 -0.3663498902832174 1.2044464367167789 -1.74182745124706 2.5733845092692422 -2.402353385022183 -1.570796326589793 -0.3663498902832174 0.020000000000012636 -0.3199999999999658 0.19187069820918617 5.4933928843635945e-15 3.1415926535897927 -1.976324379580461e-15 0.020000000000012636 -0.3199999999999658 0.19187069820918617 5.4933928843635945e-15 3.1415926535897927 -1.976324379580461e-15 1.0 0.12 0.08 True 2
9062.96 0.16567099999999998 1.2044464367111751 -1.7669085326911276 2.561680941939316 -2.36556873624819 -1.570796326589793 -0.3663498902888209 1.2044464367111751 -1.7669085326911276 2.561680941939316 -2.36556873624819 -1.570796326589793 -0.3663498902888209 0.020000000000011064 -0.31999999999997053 0.19983862024793872 5.9729748028397806e-15 3.1415926535897922 -3.3629947746596643e-15 0.020000000000011064 -0.31999999999997053 0.19983862024793872 5.9729748028397806e-15 3.1415926535897922 -3.3629947746596643e-15 1.0 0.12 0.08 True 2
9063.06 0.112189 1.1995671345536014 -1.7658567596399743 2.5599679342424535 -2.3649075016024805 -1.570796326589793 -0.3712291924463944 1.1995671345536014 -1.7658567596399743 2.5599679342424535 -2.3649075016024805 -1.570796326589793 -0.3712291924463944 0.01821220614292731 -0.3206748144682959 0.20010720419670416 6.2781632964155356e-15 3.1415926535897922 -2.6788518961506576e-15 0.01821220614292731 -0.3206748144682959 0.20010720419670416 6.2781632964155356e-15 3.1415926535897922 -2.6788518961506576e-15 1.0 0.12 0.08 True 2
9063.16 0.120177 1.180912950693143 -1.7599460866256411 2.554344197718811 -2.365194438093172 -1.570796326589793 -0.38988337630685344 1.180912950693143 -1.7599460866256411 2.554344197718811 -2.365194438093172 -1.570796326589793 -0.38988337630685344 0.01132075811298731 -0.3231652544823661 0.2005079482599986 5.188204390787838e-15 3.141592653589792 -3.8522403613315045e-15 0.01132075811298731 -0.3231652544823661 0.2005079482599986 5.188204390787838e-15 3.141592653589792 -3.8522403613315045e-15 1.0 0.12 0.08 True 2
9063.26 0.11709 1.1482961328167303 -1.7496112820221423 2.5445111012216017 -2.365696146199461 -1.570796326589793 -0.42250019418326623 1.1482961328167303 -1.7496112820221423 2.5445111012216017 -2.365696146199461 -1.570796326589793 -0.42250019418326623 -0.0009370597086379001 -0.3271729142607545 0.2011736533586496 5.14460603456273e-15 3.1415926535897922 -2.478256276005919e-15 -0.0009370597086379001 -0.3271729142607545 0.2011736533586496 5.14460603456273e-15 3.1415926535897922 -2.478256276005919e-15 1.0 0.12 0.08 True 2
